; LightBurn 1.7.08
; GRBL-M3 (1.1e or earlier) device profile, absolute coords
; Bounds: X310.36 Y23.72 to X388.99 Y108.69
G00 G17 G40 G21 G54
G90
$H  ; VERY IMPORTANT
; Cut @ 500 mm/min, 70% power
M8
M5
G0 X388.989Y27.572
; Layer C10 Pass 1 of 2
M3
G1 X388.969Y27.178S700F500
G1 X388.911Y26.795
G1 X388.815Y26.426
G1 X388.684Y26.071
G1 X388.521Y25.734
G1 X388.326Y25.416
G1 X388.103Y25.12
G1 X387.852Y24.846
G1 X387.577Y24.597
G1 X387.278Y24.375
G1 X386.958Y24.182
G1 X386.618Y24.019
G1 X386.261Y23.89
G1 X385.889Y23.795
G1 X385.504Y23.736
G1 X385.107Y23.716
G1 X314.893
G1 X314.496Y23.736
G1 X314.111Y23.795
G1 X313.739Y23.89
G1 X313.382Y24.019
G1 X313.042Y24.182
G1 X312.722Y24.375
G1 X312.423Y24.597
G1 X312.148Y24.846
G1 X311.897Y25.12
G1 X311.674Y25.416
G1 X311.479Y25.734
G1 X311.316Y26.071
G1 X311.185Y26.426
G1 X311.089Y26.795
G1 X311.031Y27.178
G1 X311.011Y27.572
G1 Y56.428
G1 X311.031Y56.822
G1 X311.089Y57.205
G1 X311.185Y57.574
G1 X311.316Y57.929
G1 X311.479Y58.266
G1 X311.674Y58.584
G1 X311.897Y58.88
G1 X312.148Y59.154
G1 X312.423Y59.403
G1 X312.722Y59.625
G1 X313.042Y59.818
G1 X313.382Y59.981
G1 X313.739Y60.11
G1 X314.111Y60.205
G1 X314.496Y60.264
G1 X314.893Y60.284
G1 X385.107
G1 X385.504Y60.264
G1 X385.889Y60.205
G1 X386.261Y60.11
G1 X386.618Y59.981
G1 X386.958Y59.818
G1 X387.278Y59.625
G1 X387.577Y59.403
G1 X387.852Y59.154
G1 X388.103Y58.88
G1 X388.326Y58.584
G1 X388.521Y58.266
G1 X388.684Y57.929
G1 X388.815Y57.574
G1 X388.911Y57.205
G1 X388.969Y56.822
G1 X388.989Y56.428
G1 Y27.572
; Layer C10 Pass 2 of 2
G1 X388.969Y27.178
G1 X388.911Y26.795
G1 X388.815Y26.426
G1 X388.684Y26.071
G1 X388.521Y25.734
G1 X388.326Y25.416
G1 X388.103Y25.12
G1 X387.852Y24.846
G1 X387.577Y24.597
G1 X387.278Y24.375
G1 X386.958Y24.182
G1 X386.618Y24.019
G1 X386.261Y23.89
G1 X385.889Y23.795
G1 X385.504Y23.736
G1 X385.107Y23.716
G1 X314.893
G1 X314.496Y23.736
G1 X314.111Y23.795
G1 X313.739Y23.89
G1 X313.382Y24.019
G1 X313.042Y24.182
G1 X312.722Y24.375
G1 X312.423Y24.597
G1 X312.148Y24.846
G1 X311.897Y25.12
G1 X311.674Y25.416
G1 X311.479Y25.734
G1 X311.316Y26.071
G1 X311.185Y26.426
G1 X311.089Y26.795
G1 X311.031Y27.178
G1 X311.011Y27.572
G1 Y56.428
G1 X311.031Y56.822
G1 X311.089Y57.205
G1 X311.185Y57.574
G1 X311.316Y57.929
G1 X311.479Y58.266
G1 X311.674Y58.584
G1 X311.897Y58.88
G1 X312.148Y59.154
G1 X312.423Y59.403
G1 X312.722Y59.625
G1 X313.042Y59.818
G1 X313.382Y59.981
G1 X313.739Y60.11
G1 X314.111Y60.205
G1 X314.496Y60.264
G1 X314.893Y60.284
G1 X385.107
G1 X385.504Y60.264
G1 X385.889Y60.205
G1 X386.261Y60.11
G1 X386.618Y59.981
G1 X386.958Y59.818
G1 X387.278Y59.625
G1 X387.577Y59.403
G1 X387.852Y59.154
G1 X388.103Y58.88
G1 X388.326Y58.584
G1 X388.521Y58.266
G1 X388.684Y57.929
G1 X388.815Y57.574
G1 X388.911Y57.205
G1 X388.969Y56.822
G1 X388.989Y56.428
G1 Y27.572
M5
G0 X388.342Y75.978
; Layer C10 Pass 1 of 2
M3
G1 X388.322Y75.584
G1 X388.263Y75.201
G1 X388.167Y74.832
G1 X388.037Y74.477
G1 X387.873Y74.14
G1 X387.679Y73.822
G1 X387.455Y73.526
G1 X387.205Y73.252
G1 X386.929Y73.003
G1 X386.63Y72.781
G1 X386.31Y72.588
G1 X385.971Y72.425
G1 X385.614Y72.296
G1 X385.242Y72.201
G1 X384.856Y72.142
G1 X384.459Y72.122
G1 X314.246
G1 X313.849Y72.142
G1 X313.463Y72.201
G1 X313.091Y72.296
G1 X312.734Y72.425
G1 X312.395Y72.588
G1 X312.075Y72.781
G1 X311.776Y73.003
G1 X311.5Y73.252
G1 X311.25Y73.526
G1 X311.026Y73.822
G1 X310.832Y74.14
G1 X310.668Y74.477
G1 X310.538Y74.832
G1 X310.442Y75.201
G1 X310.383Y75.584
G1 X310.363Y75.978
G1 Y104.834
G1 X310.383Y105.228
G1 X310.442Y105.611
G1 X310.538Y105.98
G1 X310.668Y106.335
G1 X310.832Y106.672
G1 X311.026Y106.99
G1 X311.25Y107.286
G1 X311.5Y107.56
G1 X311.776Y107.809
G1 X312.075Y108.031
G1 X312.395Y108.224
G1 X312.734Y108.387
G1 X313.091Y108.516
G1 X313.463Y108.611
G1 X313.849Y108.67
G1 X314.246Y108.69
G1 X384.459
G1 X384.856Y108.67
G1 X385.242Y108.611
G1 X385.614Y108.516
G1 X385.971Y108.387
G1 X386.31Y108.224
G1 X386.63Y108.031
G1 X386.929Y107.809
G1 X387.205Y107.56
G1 X387.455Y107.286
G1 X387.679Y106.99
G1 X387.873Y106.672
G1 X388.037Y106.335
G1 X388.167Y105.98
G1 X388.263Y105.611
G1 X388.322Y105.228
G1 X388.342Y104.834
G1 Y75.978
; Layer C10 Pass 2 of 2
G1 X388.322Y75.584
G1 X388.263Y75.201
G1 X388.167Y74.832
G1 X388.037Y74.477
G1 X387.873Y74.14
G1 X387.679Y73.822
G1 X387.455Y73.526
G1 X387.205Y73.252
G1 X386.929Y73.003
G1 X386.63Y72.781
G1 X386.31Y72.588
G1 X385.971Y72.425
G1 X385.614Y72.296
G1 X385.242Y72.201
G1 X384.856Y72.142
G1 X384.459Y72.122
G1 X314.246
G1 X313.849Y72.142
G1 X313.463Y72.201
G1 X313.091Y72.296
G1 X312.734Y72.425
G1 X312.395Y72.588
G1 X312.075Y72.781
G1 X311.776Y73.003
G1 X311.5Y73.252
G1 X311.25Y73.526
G1 X311.026Y73.822
G1 X310.832Y74.14
G1 X310.668Y74.477
G1 X310.538Y74.832
G1 X310.442Y75.201
G1 X310.383Y75.584
G1 X310.363Y75.978
G1 Y104.834
G1 X310.383Y105.228
G1 X310.442Y105.611
G1 X310.538Y105.98
G1 X310.668Y106.335
G1 X310.832Y106.672
G1 X311.026Y106.99
G1 X311.25Y107.286
G1 X311.5Y107.56
G1 X311.776Y107.809
G1 X312.075Y108.031
G1 X312.395Y108.224
G1 X312.734Y108.387
G1 X313.091Y108.516
G1 X313.463Y108.611
G1 X313.849Y108.67
G1 X314.246Y108.69
G1 X384.459
G1 X384.856Y108.67
G1 X385.242Y108.611
G1 X385.614Y108.516
G1 X385.971Y108.387
G1 X386.31Y108.224
G1 X386.63Y108.031
G1 X386.929Y107.809
G1 X387.205Y107.56
G1 X387.455Y107.286
G1 X387.679Y106.99
G1 X387.873Y106.672
G1 X388.037Y106.335
G1 X388.167Y105.98
G1 X388.263Y105.611
G1 X388.322Y105.228
G1 X388.342Y104.834
G1 Y75.978
M5
M9
G1 S0
G90
; return to user-defined finish pos
G0 X0Y400 ; VERY IMPORTANT - this makes sure that the laser will move away so the door won't interfere
M2
