; LightBurn 1.7.08
; GRBL-M3 (1.1e or earlier) device profile, absolute coords
; Bounds: X280.65 Y17.35 to X389.35 Y116.65
G00 G17 G40 G21 G54
G90
; Cut @ 6000 mm/min, 35% power
M8
M5
G0 X282.664Y31.94
; Layer C00
M3
G1 Y32.066S350F6000
G1 X282.775Y32.114
G1 X282.992Y32.255
G1 X283.169Y32.444
G1 X283.212Y32.727
G1 X283.232Y33.012
G1 X283.358
G1 Y33.579
G1 X283.232
G1 X283.169Y33.957
G1 X282.853Y34.02
G1 Y34.146
G1 X282.538
G1 Y34.02
G1 X282.223Y33.957
G1 X282.16Y33.768
G1 X282.034
G1 X281.971Y33.453
G1 X281.845
G1 X281.782Y32.948
G1 X281.656
G1 Y32.694
G1 X281.7Y32.46
G1 X281.789Y32.238
G1 X281.926Y32.022
G1 X282.031Y31.959
G1 X282.13Y31.93
G1 X282.236Y31.924
G1 X282.533Y31.934
G1 X282.664Y31.94
M5
G0 X282.365Y31.239
M3
G1 X282.142Y31.243
G1 X281.971Y31.247
G1 Y31.373
G1 X281.656
G1 X281.593Y31.499
G1 X281.466Y31.538
G1 X281.341Y31.562
G1 Y31.373
G1 X280.648
G1 Y31.688
G1 X280.711Y31.751
G1 X280.744Y31.956
G1 X280.793Y32.294
G1 X280.82Y32.469
G1 X280.832Y32.522
G1 X280.859Y32.587
G1 X280.9Y32.633
G1 X280.919Y32.761
G1 X280.935Y32.889
G1 X280.963Y33.138
G1 X281.089
G1 X281.085Y33.362
G1 X281.1Y33.661
G1 X281.139Y33.949
G1 X281.2Y34.235
G1 X281.278Y34.524
G1 X281.311Y34.713
G1 X281.341Y34.902
G1 X281.467
G1 X281.491Y35.107
G1 X281.548Y35.362
G1 X281.656Y35.595
G1 X281.782
G1 X281.822Y35.709
G1 X281.916Y35.836
G1 X282.016Y35.919
G1 X282.134Y35.979
G1 X282.286Y36.036
G1 X282.62Y36.075
G1 X282.949Y36.091
G1 X283.278Y36.079
G1 X283.61Y36.036
G1 Y35.91
G1 X283.755Y35.922
G1 X283.918Y35.901
G1 X284.039Y35.828
G1 X284.104Y35.711
G1 X284.114Y35.532
G1 X284.24
G1 Y34.902
G1 X283.711Y34.896
G1 X283.551Y34.909
G1 X283.421Y34.965
G1 X283.358Y35.343
G1 X282.475
G1 Y35.217
G1 X282.223Y35.154
G1 X282.16Y34.65
G1 X282.349Y34.713
G1 X282.601Y34.72
G1 X283.148
G1 X283.267
G1 X283.358Y34.712
G1 X283.428Y34.701
G1 X283.536Y34.653
G1 X283.653Y34.559
G1 X283.725Y34.457
G1 X283.736Y34.335
G1 X283.862
G1 X283.97Y34.136
G1 X284.046Y33.925
G1 X284.093Y33.705
G1 X284.116Y33.479
G1 X284.106Y33.02
G1 X284.051Y32.57
G1 X283.925
G1 X283.862Y32.192
G1 X283.736
G1 Y31.94
G1 X283.587Y31.811
G1 X283.421Y31.688
G1 X283.318Y31.578
G1 X283.265Y31.532
G1 X283.219Y31.509
G1 X283.153Y31.5
G1 X283.042
G1 Y31.373
G1 X282.878Y31.291
G1 X282.718Y31.251
G1 X282.55Y31.238
G1 X282.365
M5
G0 X285.339Y31.231
M3
G1 X285.122
G1 X285.01Y31.242
G1 X284.933Y31.261
G1 X284.856Y31.3
G1 X284.744Y31.373
G1 Y31.499
G1 X284.555Y31.562
G1 Y31.688
G1 X284.429
G1 X284.397Y31.978
G1 X284.386Y32.255
G1 X284.397Y32.533
G1 X284.429Y32.822
G1 X284.555
G1 X284.618Y33.831
G1 X284.744
G1 X284.74Y34.059
G1 X284.757Y34.384
G1 X284.807Y34.713
G1 X285.626
G1 Y34.335
G1 X285.5
G1 X285.504Y34.106
G1 X285.487Y33.778
G1 X285.437Y33.453
G1 X285.311
G1 X285.315Y33.228
G1 X285.301Y32.93
G1 X285.263Y32.64
G1 X285.202Y32.354
G1 X285.122Y32.066
G1 X285.248
G1 Y31.94
G1 X285.815
G1 Y32.066
G1 X286.13Y32.129
G1 X286.193Y32.381
G1 X286.319
G1 X286.579Y33.244
G1 X286.648Y33.567
G1 X286.697Y33.894
G1 X286.76Y33.957
G1 X286.796Y34.147
G1 X286.887Y34.713
G1 X287.706
G1 Y34.461
G1 X287.58
G1 X287.584Y34.236
G1 X287.553Y33.763
G1 X287.454Y33.299
G1 X287.375Y32.938
G1 X287.328Y32.57
G1 X287.202
G1 Y32.066
G1 X287.076
G1 X287.079Y31.826
G1 X287.069Y31.598
G1 X287.013Y31.373
G1 X286.319
G1 Y31.562
G1 X286.004Y31.499
G1 Y31.373
G1 X285.843Y31.293
G1 X285.685Y31.25
G1 X285.521Y31.234
G1 X285.339Y31.231
M5
G0 X288.462Y31.373
M3
G1 X287.706
G1 X287.749Y32.007
G1 X287.774Y32.177
G1 X287.832Y32.255
G1 X287.851Y32.383
G1 X287.867Y32.511
G1 X287.895Y32.759
G1 X288.021
G1 X288.009Y32.956
G1 X288.022Y33.203
G1 X288.057Y33.446
G1 X288.106Y33.686
G1 X288.162Y33.927
G1 X288.211Y34.15
G1 X288.24Y34.386
G1 X288.261Y34.504
G1 X288.284Y34.578
G1 X288.326Y34.637
G1 X288.399Y34.713
G1 X288.566Y34.723
G1 X288.945Y34.717
G1 X289.092Y34.713
G1 Y34.272
G1 X288.966
G1 X288.903Y33.264
G1 X288.777
G1 X288.789Y33.067
G1 X288.771Y32.765
G1 X288.724Y32.467
G1 X288.659Y32.172
G1 X288.588Y31.877
G1 X288.462
G1 Y31.373
M5
G0 X289.013Y31.239
M3
G1 X288.843Y31.243
G1 X288.714Y31.247
G1 Y31.373
G1 X288.588
G1 Y31.751
G1 X288.714
G1 X288.777Y32.066
G1 X289.092
G1 Y31.94
G1 X289.281
G1 Y32.066
G1 X289.431Y32.082
G1 X289.531Y32.101
G1 X289.59Y32.124
G1 X289.629Y32.167
G1 X289.671Y32.243
G1 X289.722Y32.381
G1 X289.848Y32.633
G1 X289.974
G1 X290.041Y32.974
G1 X290.163Y33.642
G1 X290.289
G1 X290.285Y33.866
G1 Y34.083
G1 X290.289Y34.248
G1 X290.297Y34.371
G1 X290.31Y34.463
G1 X290.368Y34.592
G1 X290.478Y34.713
G1 X290.646Y34.723
G1 X291.024Y34.717
G1 X291.172Y34.713
G1 Y34.335
G1 X291.046
G1 X291.05Y34.11
G1 X291.031Y33.749
G1 X290.983Y33.39
G1 X290.857
G1 X290.814Y32.707
G1 X290.801Y32.59
G1 X290.788Y32.524
G1 X290.767Y32.484
G1 X290.731Y32.444
G1 X290.711Y32.317
G1 X290.695Y32.188
G1 X290.668Y31.94
G1 X290.542
G1 X290.545Y31.728
G1 X290.534Y31.512
G1 X290.478Y31.373
G1 X289.785
G1 X289.722Y31.499
G1 X289.596
G1 Y31.373
G1 X289.453Y31.301
G1 X289.317Y31.259
G1 X289.175Y31.241
G1 X289.013
M5
G0 X288.21Y30.113
M3
G1 X287.391
G1 Y30.365
G1 X287.517
G1 Y30.869
G1 X288.273
G1 X288.268Y30.488
G1 X288.21Y30.113
M5
G0 X293.125Y31.94
M3
G1 Y32.066
G1 X293.247Y32.117
G1 X293.335Y32.16
G1 X293.385Y32.201
G1 X293.414Y32.267
G1 X293.44Y32.381
G1 X293.566
G1 X293.629Y32.633
G1 X292.054
G1 X292.094Y32.453
G1 X292.127Y32.316
G1 X292.158Y32.213
G1 X292.19Y32.137
G1 X292.279Y32.032
G1 X292.428Y31.936
G1 X292.608Y31.894
G1 X292.778Y31.883
G1 X292.947Y31.899
G1 X293.125Y31.94
M5
G0 X293.251Y31.247
M3
G1 X292.243
G1 Y31.373
G1 X292.054
G1 Y31.499
G1 X291.908Y31.519
G1 X291.786Y31.553
G1 X291.697Y31.591
G1 X291.624Y31.652
G1 X291.55Y31.751
G1 X291.511Y32.002
G1 X291.487Y32.255
G1 X291.361
G1 Y33.264
G1 X293.818
G1 X293.755Y33.831
G1 X293.629
G1 X293.529Y33.919
G1 X293.44Y34.02
G1 Y34.146
G1 X293.022Y34.109
G1 X292.813Y34.054
G1 X292.621Y33.957
G1 X292.558Y33.831
G1 X292.432
G1 X292.408Y33.713
G1 X292.358Y33.58
G1 X292.243Y33.453
G1 X292.109
G1 X291.808Y33.491
G1 X291.677Y33.52
G1 X291.55Y33.579
G1 X291.602Y33.793
G1 X291.672Y33.994
G1 X291.775Y34.177
G1 X291.928Y34.335
G1 X292.054
G1 Y34.461
G1 X292.184Y34.598
G1 X292.337Y34.699
G1 X292.506Y34.776
G1 X292.684Y34.839
G1 X292.932Y34.865
G1 X293.18Y34.874
G1 X293.314
G1 X293.555Y34.851
G1 X293.767Y34.795
G1 X293.964Y34.702
G1 X294.165Y34.568
G1 X294.274Y34.402
G1 X294.323Y34.209
G1 X294.449
G1 X294.507Y33.969
G1 X294.52Y33.723
G1 Y32.851
G1 X294.494Y32.615
G1 X294.449Y32.381
G1 X294.323
G1 X294.26Y32.066
G1 X294.133
G1 Y31.877
G1 X294.007
G1 X293.944Y31.688
G1 X293.818
G1 X293.755Y31.499
G1 X293.63Y31.427
G1 X293.521Y31.39
G1 X293.403Y31.375
G1 X293.251
G1 Y31.247
M5
G0 X296.591Y31.94
M3
G1 Y32.066
G1 X296.843Y32.129
G1 X296.863Y32.251
G1 X296.906Y32.381
G1 X297.095Y32.444
G1 Y32.633
G1 X295.646
G1 X295.709Y32.066
G1 X295.898
G1 Y31.94
G1 X296.106Y31.904
G1 X296.247Y31.892
G1 X296.387Y31.904
G1 X296.591Y31.94
M5
G0 X295.617Y31.312
M3
G1 X295.52Y31.373
G1 Y31.499
G1 X295.378Y31.503
G1 X295.243Y31.565
G1 X295.149Y31.644
G1 X295.076Y31.747
G1 X295.006Y31.88
G1 X294.906Y32.161
G1 X294.848Y32.436
G1 X294.824Y32.715
G1 X294.827Y33.012
G1 X294.953
G1 Y33.264
G1 X297.284
G1 X297.271Y33.427
G1 X297.258Y33.554
G1 X297.241Y33.653
G1 X297.217Y33.735
G1 X297.13Y33.886
G1 X296.969Y34.083
G1 X296.781Y34.128
G1 X296.616Y34.131
G1 X296.454Y34.095
G1 X296.276Y34.02
G1 X296.087Y33.957
G1 X296.024Y33.768
G1 X295.898
G1 X295.772Y33.453
G1 X295.292Y33.496
G1 X295.145Y33.521
G1 X295.016Y33.579
G1 X295.145Y34.003
G1 X295.245Y34.188
G1 X295.394Y34.335
G1 X295.52
G1 Y34.461
G1 X295.594Y34.558
G1 X295.709Y34.65
G1 X295.938Y34.69
G1 X296.15Y34.713
G1 Y34.839
G1 X297.221
G1 Y34.713
G1 X297.399Y34.693
G1 X297.529Y34.662
G1 X297.627Y34.625
G1 X297.708Y34.563
G1 X297.788Y34.461
G1 Y34.209
G1 X297.914
G1 X298.007Y33.772
G1 X298.035Y33.651
G1 X298.104Y33.579
G1 Y33.358
G1 Y33.138
G1 X297.978
G1 X297.981Y32.901
G1 X297.97Y32.638
G1 X297.914Y32.381
G1 X297.788
G1 X297.765Y32.236
G1 X297.715Y32.064
G1 X297.599Y31.877
G1 X297.473
G1 X297.41Y31.688
G1 X297.284
G1 X297.221Y31.499
G1 X297.048Y31.395
G1 X296.858Y31.312
G1 X296.655Y31.251
G1 X296.444Y31.213
G1 X296.23Y31.199
G1 X296.018Y31.21
G1 X295.812Y31.247
G1 X295.617Y31.312
M5
G0 X299.742Y31.247
M3
G1 X299.127Y31.235
G1 X298.942Y31.257
G1 X298.799Y31.304
G1 X298.67Y31.384
G1 X298.53Y31.506
G1 X298.447Y31.679
G1 X298.406Y31.849
G1 X298.395Y32.025
G1 X298.401Y32.355
G1 X298.412Y32.808
G1 X298.42Y32.952
G1 X298.431Y33.054
G1 X298.471Y33.177
G1 X298.545Y33.264
G1 X298.578Y33.484
G1 X298.626Y33.848
G1 X298.654Y34.037
G1 X298.665Y34.093
G1 X298.692Y34.162
G1 X298.734Y34.209
G1 X298.784Y34.558
G1 X298.801Y34.63
G1 X298.823Y34.673
G1 X298.86Y34.713
G1 X299.206Y34.717
G1 X299.553Y34.713
G1 X299.49Y33.768
G1 X299.364
G1 X299.368Y33.539
G1 X299.351Y33.211
G1 X299.301Y32.885
G1 X299.175
G1 Y31.94
G1 X299.805
G1 Y32.066
G1 X299.994Y32.129
G1 X300.057Y32.255
G1 X300.183
G1 X300.246Y32.444
G1 X300.372
G1 Y32.633
G1 X300.498
G1 X300.561Y33.327
G1 X300.687
G1 X300.683Y33.555
G1 X300.7Y33.883
G1 X300.75Y34.209
G1 X300.876
G1 Y34.713
G1 X301.633
G1 X301.569Y33.831
G1 X301.443
G1 X301.4Y33.148
G1 X301.388Y33.032
G1 X301.375Y32.966
G1 X301.354Y32.925
G1 X301.317Y32.885
G1 X301.286Y32.697
G1 X301.258Y32.507
G1 X301.173Y32.001
G1 X301.065Y31.499
G1 X300.939
G1 Y31.373
G1 X300.246
G1 X300.183Y31.499
G1 X299.994
G1 Y31.373
G1 X299.742
G1 Y31.247
M5
G0 X302.452Y31.373
M3
G1 X301.633
G1 X301.696Y31.688
G1 X301.759Y32.129
G1 X301.885
G1 X301.881Y32.354
G1 X301.912Y32.827
G1 X302.011Y33.291
G1 X302.089Y33.653
G1 X302.137Y34.02
G1 X302.263
G1 X302.259Y34.26
G1 X302.269Y34.488
G1 X302.326Y34.713
G1 X303.082
G1 X303.062Y34.391
G1 X303.019Y34.071
G1 X302.956Y33.642
G1 X302.83
G1 X302.834Y33.417
G1 Y33.037
G1 X302.827Y32.916
G1 X302.818Y32.829
G1 X302.779Y32.719
G1 X302.704Y32.633
G1 X302.673Y32.458
G1 X302.645Y32.283
G1 X302.56Y31.825
G1 X302.452Y31.373
M5
G0 X302.137Y30.113
M3
G1 X301.443
G1 X301.438Y30.293
G1 Y30.43
G1 Y30.535
G1 X301.447Y30.615
G1 X301.488Y30.737
G1 X301.569Y30.869
G1 X301.737Y30.884
G1 X302.115Y30.876
G1 X302.263Y30.869
G1 Y30.302
G1 X302.137
G1 Y30.113
M5
G0 X305.035Y31.94
M3
G1 Y32.066
G1 X305.146Y32.114
G1 X305.363Y32.255
G1 X305.54Y32.444
G1 X305.583Y32.727
G1 X305.603Y33.012
G1 X305.729
G1 Y33.579
G1 X305.603
G1 X305.54Y33.957
G1 X305.224Y34.02
G1 Y34.146
G1 X304.909
G1 Y34.02
G1 X304.594Y33.957
G1 X304.531Y33.768
G1 X304.405
G1 X304.342Y33.453
G1 X304.216
G1 X304.153Y32.948
G1 X304.027
G1 Y32.694
G1 X304.071Y32.46
G1 X304.16Y32.238
G1 X304.297Y32.022
G1 X304.402Y31.959
G1 X304.501Y31.93
G1 X304.607Y31.924
G1 X304.904Y31.934
G1 X305.035Y31.94
M5
G0 X304.736Y31.239
M3
G1 X304.513Y31.243
G1 X304.342Y31.247
G1 Y31.373
G1 X304.204Y31.397
G1 X303.954Y31.468
G1 X303.712Y31.562
G1 Y31.373
G1 X303.019
G1 Y31.688
G1 X303.082Y31.751
G1 X303.109Y31.948
G1 X303.148Y32.189
G1 X303.208Y32.409
G1 X303.287Y32.77
G1 X303.334Y33.138
G1 X303.46
G1 X303.452Y33.348
G1 X303.493Y33.829
G1 X303.586Y34.303
G1 X303.712Y34.902
G1 X303.838
G1 Y35.217
G1 X303.964
G1 X304.027Y35.595
G1 X304.153
G1 X304.193Y35.717
G1 X304.246Y35.793
G1 X304.293Y35.837
G1 X304.361Y35.865
G1 X304.476Y35.895
G1 X304.657Y35.91
G1 Y36.036
G1 X304.992Y36.066
G1 X305.32Y36.083
G1 X305.648Y36.076
G1 X305.981Y36.036
G1 Y35.91
G1 X306.126Y35.922
G1 X306.289Y35.901
G1 X306.41Y35.828
G1 X306.475Y35.711
G1 X306.485Y35.532
G1 X306.611
G1 Y34.902
G1 X306.082Y34.896
G1 X305.922Y34.909
G1 X305.792Y34.965
G1 X305.729Y35.343
G1 X304.846
G1 Y35.217
G1 X304.594Y35.154
G1 X304.531Y34.65
G1 X304.72Y34.713
G1 X304.972Y34.72
G1 X305.519
G1 X305.639
G1 X305.729Y34.712
G1 X305.799Y34.701
G1 X305.907Y34.653
G1 X306.024Y34.559
G1 X306.096Y34.457
G1 X306.107Y34.335
G1 X306.233
G1 X306.341Y34.136
G1 X306.417Y33.925
G1 X306.464Y33.705
G1 X306.487Y33.479
G1 X306.477Y33.02
G1 X306.422Y32.57
G1 X306.296
G1 X306.233Y32.192
G1 X306.107
G1 Y31.94
G1 X305.958Y31.811
G1 X305.792Y31.688
G1 X305.689Y31.578
G1 X305.636Y31.532
G1 X305.59Y31.509
G1 X305.524Y31.5
G1 X305.414
G1 Y31.373
G1 X305.249Y31.291
G1 X305.089Y31.251
G1 X304.921Y31.238
G1 X304.736
M5
G0 X307.71Y31.231
M3
G1 X307.493
G1 X307.381Y31.242
G1 X307.304Y31.261
G1 X307.227Y31.3
G1 X307.115Y31.373
G1 Y31.499
G1 X306.926Y31.562
G1 Y31.688
G1 X306.8
G1 X306.768Y31.978
G1 X306.757Y32.255
G1 X306.768Y32.533
G1 X306.8Y32.822
G1 X306.926
G1 X306.989Y33.831
G1 X307.115
G1 X307.111Y34.059
G1 X307.128Y34.384
G1 X307.178Y34.713
G1 X307.997
G1 Y34.335
G1 X307.871
G1 X307.875Y34.106
G1 X307.858Y33.778
G1 X307.808Y33.453
G1 X307.682
G1 X307.686Y33.228
G1 X307.672Y32.93
G1 X307.634Y32.64
G1 X307.573Y32.354
G1 X307.493Y32.066
G1 X307.619
G1 Y31.94
G1 X308.186
G1 Y32.066
G1 X308.336Y32.082
G1 X308.436Y32.1
G1 X308.493Y32.123
G1 X308.529Y32.164
G1 X308.565Y32.239
G1 X308.627Y32.381
G1 X308.704Y32.529
G1 X308.833Y32.823
G1 X308.929Y33.115
G1 X308.998Y33.414
G1 X309.046Y33.733
G1 X309.074Y33.882
G1 X309.132Y33.957
G1 X309.167Y34.147
G1 X309.258Y34.713
G1 X310.077
G1 Y34.461
G1 X309.951
G1 X309.955Y34.236
G1 X309.924Y33.763
G1 X309.825Y33.299
G1 X309.746Y32.938
G1 X309.699Y32.57
G1 X309.573
G1 Y32.066
G1 X309.447
G1 X309.451Y31.826
G1 X309.44Y31.598
G1 X309.384Y31.373
G1 X308.69
G1 Y31.562
G1 X308.375Y31.499
G1 Y31.373
G1 X308.214Y31.293
G1 X308.056Y31.25
G1 X307.892Y31.234
G1 X307.71Y31.231
M5
G0 X313.228Y30.113
M3
G1 X309.762
G1 X309.888Y30.743
G1 X312.534
G1 X312.642Y31.309
G1 X312.723Y31.877
G1 X310.489Y31.93
G1 X310.373Y31.941
G1 X310.312Y31.963
G1 X310.266Y32.003
G1 X310.26Y32.209
G1 X310.293Y32.377
G1 X310.361Y32.547
G1 X310.455Y32.759
G1 X312.976Y32.822
G1 X313.039Y33.327
G1 X313.165
G1 X313.161Y33.531
G1 X313.177Y33.78
G1 X313.228Y34.02
G1 X310.628Y34.012
G1 X310.524Y34.027
G1 X310.455Y34.083
G1 Y34.303
G1 Y34.524
G1 X310.581
G1 Y34.713
G1 X314.236
G1 Y34.524
G1 X314.11
G1 X314.067Y33.841
G1 X314.054Y33.725
G1 X314.041Y33.659
G1 X314.021Y33.618
G1 X313.984Y33.579
G1 X313.951Y33.358
G1 X313.902Y32.994
G1 X313.875Y32.806
G1 X313.863Y32.749
G1 X313.836Y32.681
G1 X313.795Y32.633
G1 X313.762Y32.413
G1 X313.732Y32.192
G1 X313.606
G1 X313.61Y31.968
G1 X313.592Y31.606
G1 X313.543Y31.247
G1 X313.417
G1 X313.354Y30.302
G1 X313.228
G1 Y30.113
M5
G0 X316.505Y30.113
M3
G1 X315.811
G1 Y30.743
G1 X315.937
G1 X315.98Y31.426
G1 X315.993Y31.542
G1 X316.006Y31.608
G1 X316.027Y31.649
G1 X316.063Y31.688
G1 X316.099Y31.926
G1 X316.189Y32.633
G1 X316.315
G1 X316.304Y32.83
G1 X316.321Y33.132
G1 X316.369Y33.43
G1 X316.434Y33.725
G1 X316.505Y34.02
G1 X316.631
G1 X316.627Y34.26
G1 X316.637Y34.488
G1 X316.694Y34.713
G1 X317.45
G1 X317.432Y34.409
G1 X317.391Y34.106
G1 X317.357Y33.883
G1 X317.32Y33.719
G1 X317.261Y33.642
G1 X317.241Y33.514
G1 X317.225Y33.386
G1 X317.198Y33.138
G1 X317.072
G1 X317.029Y32.454
G1 X317.016Y32.338
G1 X317.003Y32.272
G1 X316.982Y32.232
G1 X316.946Y32.192
G1 X316.912Y31.972
G1 X316.864Y31.608
G1 X316.837Y31.419
G1 X316.825Y31.363
G1 X316.798Y31.294
G1 X316.757Y31.247
G1 X316.71Y30.914
G1 X316.668Y30.58
G1 X316.62Y30.36
G1 X316.505Y30.113
M5
G0 X319.781Y33.327
M3
G1 Y33.453
G1 X319.97
G1 Y33.642
G1 X320.096
G1 Y33.957
G1 X319.97
G1 X319.907Y34.146
G1 X319.769Y34.196
G1 X319.631Y34.215
G1 X319.49
G1 X319.34Y34.209
G1 X319.151Y34.146
G1 Y34.02
G1 X318.899Y33.957
G1 Y33.831
G1 X318.773
G1 X318.687Y33.671
G1 X318.638Y33.558
G1 X318.61Y33.44
G1 X318.584Y33.264
G1 X319.187Y33.257
G1 X319.486Y33.28
G1 X319.781Y33.327
M5
G0 X318.931Y31.231
M3
G1 X318.788
G1 X318.6Y31.236
G1 X318.425Y31.257
G1 X318.255Y31.3
G1 X318.08Y31.373
G1 Y31.499
G1 X317.962Y31.523
G1 X317.829Y31.573
G1 X317.702Y31.688
G1 Y31.877
G1 X317.576
G1 Y32.633
G1 X317.702
G1 X317.694Y32.854
G1 X317.721Y33.182
G1 X317.798Y33.504
G1 X317.848Y33.854
G1 X317.867Y34.209
G1 X317.891Y34.713
G1 X319.214
G1 Y34.839
G1 X319.663Y34.851
G1 X319.79Y34.856
G1 X319.997Y34.848
G1 X320.181Y34.814
G1 X320.357Y34.75
G1 X320.538Y34.65
G1 X320.618Y34.484
G1 X320.664Y34.335
G1 X320.79
G1 X320.845Y33.775
G1 X320.837Y33.517
G1 X320.79Y33.264
G1 X320.664
G1 X320.601Y33.075
G1 X320.475
G1 Y32.948
G1 X320.137Y32.76
G1 X319.783Y32.658
G1 X319.414Y32.612
G1 X319.029Y32.594
G1 X318.395Y32.57
G1 X318.423Y32.349
G1 X318.458Y32.129
G1 X318.584Y32.066
G1 Y31.94
G1 X319.403
G1 X319.466Y32.129
G1 X319.592
G1 X319.718Y32.444
G1 X320.475
G1 Y32.066
G1 X320.349
G1 X320.337Y31.924
G1 X320.279Y31.78
G1 X320.202Y31.674
G1 X320.101Y31.587
G1 X319.97Y31.499
G1 X319.781
G1 Y31.373
G1 X319.572Y31.29
G1 X319.366Y31.247
G1 X319.155Y31.232
G1 X318.931
M5
G0 X322.617Y31.247
M3
G1 X322.036Y31.236
G1 X321.854Y31.24
G1 X321.687Y31.261
G1 X321.524Y31.303
G1 X321.357Y31.373
G1 Y31.499
G1 X321.168Y31.562
G1 Y31.688
G1 X320.979Y31.751
G1 X320.884Y31.947
G1 X320.847Y32.145
G1 X320.844Y32.351
G1 X320.853Y32.57
G1 X321.546
G1 Y32.444
G1 X321.672
G1 X321.696Y32.291
G1 X321.735Y32.129
G1 X321.861Y32.066
G1 Y31.94
G1 X322.428
G1 Y32.066
G1 X322.743Y32.129
G1 X322.767Y32.232
G1 X322.845Y32.497
G1 X322.932Y32.759
G1 X323.058
G1 Y33.957
G1 X322.932
G1 X322.861Y34.051
G1 X322.717Y34.133
G1 X322.568Y34.161
G1 X322.411Y34.158
G1 X322.239Y34.146
G1 X322.176Y33.957
G1 X322.05
G1 Y33.831
G1 X321.924
G1 X321.861Y33.453
G1 X321.042
G1 Y33.768
G1 X321.168
G1 X321.231Y34.146
G1 X321.357
G1 Y34.335
G1 X321.462Y34.432
G1 X321.726Y34.625
G1 X321.971Y34.787
G1 X322.134Y34.831
G1 X322.298Y34.849
G1 X322.464
G1 X323.121Y34.839
G1 Y34.713
G1 X323.436Y34.65
G1 Y34.524
G1 X323.625Y34.461
G1 Y34.335
G1 X323.751
G1 X323.844Y33.898
G1 X323.872Y33.777
G1 X323.941Y33.705
G1 X323.946Y33.484
G1 X323.941Y33.264
G1 X323.878Y33.201
G1 X323.842Y32.994
G1 X323.751Y32.381
G1 X323.625
G1 X323.61Y32.2
G1 X323.562Y32.003
G1 X323.439Y31.934
G1 X323.31Y31.877
G1 X323.251Y31.759
G1 X323.177Y31.637
G1 X323.09Y31.539
G1 X322.988Y31.455
G1 X322.869Y31.373
G1 X322.617
G1 Y31.247
M5
G0 X324.823Y31.373
M3
G1 X324.004
G1 X324.067Y31.688
G1 X324.13Y32.129
G1 X324.256
G1 X324.252Y32.354
G1 X324.283Y32.827
G1 X324.382Y33.291
G1 X324.46Y33.653
G1 X324.508Y34.02
G1 X324.634
G1 X324.63Y34.26
G1 X324.64Y34.488
G1 X324.697Y34.713
G1 X325.516
G1 X325.327Y33.642
G1 X325.201
G1 X325.205Y33.417
G1 Y33.037
G1 X325.198Y32.916
G1 X325.189Y32.829
G1 X325.15Y32.719
G1 X325.075Y32.633
G1 X325.044Y32.441
G1 X325.016Y32.247
G1 X324.938Y31.806
G1 X324.823Y31.373
M5
G0 X326.556Y31.223
M3
G1 X326.345Y31.218
G1 X326.187Y31.252
G1 X326.061Y31.307
G1 X325.948Y31.387
G1 X325.831Y31.499
G1 Y31.688
G1 X325.705
G1 X325.639Y31.997
G1 X325.63Y32.315
G1 X325.658Y32.634
G1 X325.705Y32.948
G1 X325.768Y33.012
G1 X325.804Y33.25
G1 X325.894Y33.957
G1 X326.02
G1 X326.016Y34.158
G1 X326.027Y34.407
G1 X326.083Y34.713
G1 X326.902
G1 Y34.461
G1 X326.776
G1 X326.713Y33.579
G1 X326.587
G1 X326.591Y33.354
G1 Y32.974
G1 X326.584Y32.853
G1 X326.575Y32.766
G1 X326.536Y32.656
G1 X326.461Y32.57
G1 X326.442Y32.443
G1 X326.426Y32.314
G1 X326.398Y32.066
G1 X326.524
G1 Y31.94
G1 X327.091
G1 Y32.066
G1 X327.241Y32.078
G1 X327.406Y32.129
G1 X327.485Y32.282
G1 X327.532Y32.444
G1 X327.595Y32.57
G1 X327.722
G1 X327.785Y33.138
G1 X327.911
G1 X327.974Y34.02
G1 X328.1
G1 X328.096Y34.26
G1 X328.106Y34.488
G1 X328.163Y34.713
G1 X328.982
G1 Y34.524
G1 X328.856
G1 X328.793Y33.642
G1 X328.667
G1 X328.671Y33.417
G1 Y33.037
G1 X328.664Y32.916
G1 X328.654Y32.829
G1 X328.616Y32.719
G1 X328.541Y32.633
G1 X328.51Y32.441
G1 X328.482Y32.247
G1 X328.404Y31.806
G1 X328.289Y31.373
G1 X327.595
G1 X327.532Y31.562
G1 X327.28Y31.499
G1 Y31.373
G1 X327.101Y31.301
G1 X326.927Y31.256
G1 X326.749Y31.232
G1 X326.556Y31.223
M5
G0 X324.508Y30.113
M3
G1 X323.814
G1 X323.81Y30.293
G1 Y30.43
G1 Y30.535
G1 X323.818Y30.615
G1 X323.859Y30.737
G1 X323.941Y30.869
G1 X324.108Y30.884
G1 X324.487Y30.876
G1 X324.634Y30.869
G1 Y30.302
G1 X324.508
G1 Y30.113
M5
G0 X330.179Y33.138
M3
G1 Y33.264
G1 X330.329Y33.259
G1 X330.664
G1 X330.973Y33.285
G1 X331.27Y33.362
G1 X331.566Y33.516
G1 X331.584Y33.642
G1 X331.566Y34.02
G1 X331.44
G1 Y34.146
G1 X331.301Y34.196
G1 X331.163Y34.215
G1 X331.022
G1 X330.872Y34.209
G1 X330.683Y34.146
G1 Y34.02
G1 X330.368Y33.894
G1 Y33.768
G1 X330.242
G1 X330.179Y33.327
G1 X330.053
G1 Y33.138
G1 X330.179
M5
G0 X330.463Y31.231
M3
G1 X330.318
G1 X330.144
G1 X329.982Y31.25
G1 X329.828Y31.293
G1 X329.675Y31.373
G1 Y31.499
G1 X329.529Y31.519
G1 X329.411Y31.554
G1 X329.324Y31.597
G1 X329.25Y31.658
G1 X329.171Y31.751
G1 X329.153Y31.885
G1 Y32.193
G1 X329.159Y32.362
G1 X329.171Y32.948
G1 X329.297
G1 X329.36Y33.831
G1 X329.486
G1 X329.443Y34.354
G1 X329.422Y34.531
G1 X329.36Y34.713
G1 X330.179
G1 Y34.524
G1 X330.368
G1 Y34.65
G1 X330.746Y34.713
G1 Y34.839
G1 X331.755
G1 Y34.713
G1 X331.896Y34.709
G1 X332.028Y34.652
G1 X332.126Y34.581
G1 X332.204Y34.487
G1 X332.276Y34.363
G1 X332.338Y34.064
G1 X332.356Y33.748
G1 X332.33Y33.434
G1 X332.259Y33.138
G1 X332.127Y33
G1 X331.976Y32.901
G1 X331.809Y32.825
G1 X331.629Y32.759
G1 X331.419Y32.751
G1 X331.25Y32.759
G1 Y32.633
G1 X329.99Y32.57
G1 Y32.444
G1 X329.864
G1 Y32.129
G1 X330.053Y32.066
G1 Y31.94
G1 X330.872
G1 Y32.066
G1 X331.187Y32.129
G1 X331.25Y32.444
G1 X332.07
G1 Y32.192
G1 X331.944
G1 X331.932Y32.054
G1 X331.872Y31.899
G1 X331.794Y31.778
G1 X331.693Y31.671
G1 X331.566Y31.562
G1 X331.393Y31.516
G1 X331.25Y31.499
G1 Y31.373
G1 X331.064Y31.281
G1 X330.871Y31.24
G1 X330.671Y31.229
G1 X330.463
M5
G0 X335.031Y30.113
M3
G1 X334.212
G1 X334.271Y30.432
G1 X334.341Y30.839
G1 X334.401Y31.247
G1 X334.527
G1 Y31.562
G1 X334.382Y31.468
G1 X334.21Y31.385
G1 X334.023Y31.373
G1 Y31.247
G1 X333.141
G1 Y31.373
G1 X332.952
G1 Y31.499
G1 X332.763Y31.562
G1 Y31.751
G1 X332.637
G1 Y32.633
G1 X332.763
G1 X332.759Y32.858
G1 X332.79Y33.331
G1 X332.889Y33.795
G1 X332.968Y34.157
G1 X333.015Y34.524
G1 X333.141
G1 Y34.713
G1 X333.897
G1 X333.834Y34.146
G1 X333.708
G1 X333.712Y33.921
G1 X333.705Y33.687
G1 X333.683Y33.457
G1 X333.643Y33.231
G1 X333.582Y33.004
G1 X333.521Y32.743
G1 X333.487Y32.477
G1 X333.47Y32.208
G1 X333.456Y31.94
G1 X334.149
G1 X334.212Y32.129
G1 X334.401
G1 Y32.255
G1 X334.527
G1 Y32.444
G1 X334.653
G1 X334.716Y32.822
G1 X334.842
G1 X334.905Y33.642
G1 X335.031
G1 X335.028Y33.866
G1 Y34.083
G1 X335.031Y34.248
G1 X335.039Y34.371
G1 X335.053Y34.463
G1 X335.11Y34.592
G1 X335.221Y34.713
G1 X335.388Y34.723
G1 X335.767Y34.717
G1 X335.914Y34.713
G1 Y34.492
G1 Y34.272
G1 X335.851Y34.209
G1 X335.815Y33.971
G1 X335.725Y33.264
G1 X335.599
G1 X335.61Y33.067
G1 X335.593Y32.765
G1 X335.546Y32.467
G1 X335.48Y32.172
G1 X335.41Y31.877
G1 X335.284
G1 X335.221Y30.869
G1 X335.095
G1 X335.098Y30.668
G1 X335.087Y30.418
G1 X335.031Y30.113
M5
G0 X337.174Y31.231
M3
G1 X336.946
G1 X336.674Y31.275
G1 X336.418Y31.373
G1 Y31.499
G1 X336.229Y31.562
G1 Y31.688
G1 X336.04Y31.751
G1 X335.945Y31.947
G1 X335.908Y32.145
G1 X335.905Y32.351
G1 X335.914Y32.57
G1 X336.607
G1 X336.67Y32.129
G1 X336.922Y32.066
G1 Y31.94
G1 X337.489
G1 Y32.066
G1 X337.804Y32.129
G1 X337.867Y32.444
G1 X337.993
G1 X338.021Y32.685
G1 X338.057Y32.913
G1 X338.119Y33.138
G1 X338.141Y33.378
G1 X338.138Y33.601
G1 X338.095Y33.816
G1 X337.993Y34.032
G1 X337.819Y34.118
G1 X337.661Y34.155
G1 X337.496Y34.16
G1 X337.3Y34.146
G1 Y34.02
G1 X337.211Y33.919
G1 X337.111Y33.831
G1 X336.985
G1 X336.922Y33.453
G1 X336.103
G1 Y33.768
G1 X336.229
G1 X336.241Y33.933
G1 X336.319Y34.155
G1 X336.435Y34.338
G1 X336.586Y34.496
G1 X336.772Y34.642
G1 X336.927Y34.704
G1 X337.111Y34.713
G1 Y34.839
G1 X338.182
G1 Y34.713
G1 X338.324Y34.701
G1 X338.469Y34.643
G1 X338.575Y34.567
G1 X338.662Y34.466
G1 X338.75Y34.335
G1 Y34.146
G1 X338.876
G1 X338.94Y33.925
G1 X338.983Y33.712
G1 X339.004Y33.496
G1 Y33.264
G1 X338.939Y33.201
G1 X338.919Y33.057
G1 X338.903Y32.913
G1 X338.876Y32.633
G1 X338.75
G1 X338.686Y32.192
G1 X338.56
G1 X338.497Y31.877
G1 X338.371
G1 X338.328Y31.767
G1 X338.224Y31.618
G1 X338.107Y31.498
G1 X337.976Y31.404
G1 X337.833Y31.334
G1 X337.519Y31.252
G1 X337.174Y31.231
M5
G0 X341.27Y32.129
M3
G1 X341.522Y32.633
G1 X339.947
G1 Y32.381
G1 X340.073
G1 X340.136Y32.066
G1 X340.262
G1 Y31.94
G1 X340.539Y31.896
G1 X340.796Y31.899
G1 X341.038Y31.971
G1 X341.27Y32.129
M5
G0 X341.144Y31.247
M3
G1 X340.563Y31.236
G1 X340.381Y31.24
G1 X340.214Y31.261
G1 X340.051Y31.303
G1 X339.884Y31.373
G1 Y31.499
G1 X339.774Y31.546
G1 X339.559Y31.691
G1 X339.38Y31.877
G1 X339.368Y32.047
G1 X339.38Y32.192
G1 X339.254
G1 Y33.264
G1 X341.774
G1 Y33.39
G1 X341.648
G1 X341.597Y33.63
G1 X341.556Y33.788
G1 X341.514Y33.888
G1 X341.448Y33.972
G1 X341.333Y34.083
G1 X341.136Y34.133
G1 X340.95Y34.126
G1 X340.764Y34.081
G1 X340.57Y34.019
G1 X340.488Y33.983
G1 X340.441Y33.945
G1 X340.414Y33.881
G1 X340.388Y33.768
G1 X340.262
G1 X340.199Y33.516
G1 X340Y33.476
G1 X339.818Y33.48
G1 X339.638Y33.518
G1 X339.443Y33.579
G1 X339.501Y33.8
G1 X339.569Y34.02
G1 X339.695
G1 Y34.154
G1 X339.788Y34.339
G1 X339.918Y34.487
G1 X340.078Y34.609
G1 X340.262Y34.713
G1 X340.432Y34.721
G1 X340.577Y34.713
G1 Y34.839
G1 X340.909Y34.85
G1 X341.163Y34.856
G1 X341.356
G1 X341.503Y34.842
G1 X341.727Y34.779
G1 X341.963Y34.65
G1 Y34.524
G1 X342.152Y34.461
G1 X342.193Y34.332
G1 X342.215Y34.209
G1 X342.341
G1 X342.424Y34
G1 X342.467Y33.795
G1 X342.483Y33.586
G1 Y33.221
G1 X342.477Y33.018
G1 X342.453Y32.827
G1 X342.409Y32.638
G1 X342.341Y32.444
G1 X342.215
G1 X342.152Y32.066
G1 X342.026
G1 X342.011Y31.956
G1 X341.959Y31.834
G1 X341.893Y31.737
G1 X341.811Y31.65
G1 X341.711Y31.562
G1 X341.522Y31.499
G1 X341.459Y31.373
G1 X341.144
G1 Y31.247
M5
G0 X346.816Y30.113
M3
G1 X345.933
G1 Y30.302
G1 X345.807
G1 X345.764Y30.733
G1 X345.744Y30.87
G1 X345.681Y30.995
G1 X345.664Y31.131
G1 X345.573Y32.077
G1 X345.558Y32.187
G1 X345.492Y32.255
G1 X345.451Y32.585
G1 X345.431Y32.915
G1 X345.426Y33.247
G1 X345.429Y33.579
G1 X345.303
G1 X345.24Y33.453
G1 X345.114
G1 Y33.264
G1 X344.988
G1 X344.925Y32.885
G1 X344.799
G1 X344.736Y32.57
G1 X344.61
G1 X344.547Y32.192
G1 X344.421
G1 X344.397Y32.082
G1 X344.326Y31.88
G1 X344.232Y31.688
G1 X344.106
G1 X344.086Y31.519
G1 X344.002Y31.242
G1 X343.854Y30.995
G1 X343.728
G1 Y30.806
G1 X343.602
G1 X343.582Y30.637
G1 X343.547Y30.484
G1 X343.505Y30.356
G1 X343.443Y30.237
G1 X343.35Y30.113
G1 X343.091Y30.09
G1 X342.834Y30.093
G1 X342.691Y30.097
G1 X342.341Y30.113
G1 X342.347Y30.31
G1 X342.373Y30.495
G1 X342.415Y30.677
G1 X342.468Y30.869
G1 X342.502Y31.121
G1 X342.531Y31.373
G1 X342.657
G1 X342.653Y31.598
G1 X342.669Y31.959
G1 X342.72Y32.318
G1 X342.783Y32.381
G1 X342.816Y32.586
G1 X342.864Y32.924
G1 X342.892Y33.099
G1 X342.903Y33.152
G1 X342.93Y33.217
G1 X342.972Y33.264
G1 X342.991Y33.391
G1 X343.007Y33.52
G1 X343.035Y33.768
G1 X343.161
G1 X343.224Y34.713
G1 X344.043
G1 Y34.146
G1 X343.917
G1 X343.921Y33.917
G1 X343.904Y33.589
G1 X343.854Y33.264
G1 X343.728
G1 Y32.759
G1 X343.602
G1 Y32.192
G1 X343.728Y32.444
G1 X343.854
G1 X343.917Y32.759
G1 X344.043
G1 X344.106Y33.138
G1 X344.232
G1 X344.295Y33.453
G1 X344.421
G1 Y33.642
G1 X344.547
G1 X344.567Y33.776
G1 X344.664Y34.063
G1 X344.799Y34.335
G1 X344.925
G1 X344.953Y34.488
G1 X344.992Y34.638
G1 X345.051Y34.713
G1 X345.274Y34.717
G1 X345.496
G1 X345.933Y34.713
G1 X345.987Y34.179
G1 X345.996Y33.642
G1 X346.122
G1 X346.223Y32.519
G1 X346.257Y32.361
G1 X346.375Y32.192
G1 X346.428Y32.264
G1 X346.454Y32.338
G1 X346.465Y32.42
G1 X346.473Y32.511
G1 X346.501Y32.759
G1 X346.627
G1 X346.69Y33.642
G1 X346.816
G1 X346.812Y33.866
G1 Y34.083
G1 X346.815Y34.248
G1 X346.823Y34.371
G1 X346.837Y34.463
G1 X346.894Y34.592
G1 X347.005Y34.713
G1 X347.186Y34.723
G1 X347.6Y34.717
G1 X347.761Y34.713
G1 X347.718Y34.227
G1 X347.693Y34.093
G1 X347.635Y34.02
G1 X347.602Y33.799
G1 X347.553Y33.435
G1 X347.526Y33.247
G1 X347.514Y33.19
G1 X347.487Y33.122
G1 X347.446Y33.075
G1 X347.411Y32.852
G1 X347.32Y32.192
G1 X347.194
G1 Y31.688
G1 X347.068
G1 X347.072Y31.46
G1 X347.055Y31.131
G1 X347.005Y30.806
G1 X346.879
G1 X346.883Y30.566
G1 X346.872Y30.337
G1 X346.816Y30.113
M5
G0 X349.21Y29.987
M3
G1 Y30.113
G1 X348.769
G1 Y30.554
G1 X348.895
G1 Y30.743
G1 X349.651
G1 Y31.058
G1 X349.777
G1 Y31.373
G1 X349.147
G1 X349.273Y31.94
G1 X349.904Y32.003
G1 X349.967Y32.444
G1 X350.093
G1 X350.156Y33.453
G1 X350.282
G1 X350.345Y34.335
G1 X350.471
G1 Y34.713
G1 X351.227
G1 X351.164Y33.957
G1 X351.038
G1 X351.05Y33.76
G1 X351.037Y33.513
G1 X351.002Y33.27
G1 X350.952Y33.03
G1 X350.896Y32.789
G1 X350.848Y32.567
G1 X350.819Y32.334
G1 X350.774Y32.131
G1 X350.66Y31.94
G1 X351.164
G1 Y31.562
G1 X351.038
G1 Y31.373
G1 X350.534
G1 X350.471Y30.68
G1 X350.345
G1 Y30.365
G1 X350.156Y30.302
G1 X350.093Y30.113
G1 X349.874Y30.033
G1 X349.66Y29.994
G1 X349.442Y29.982
G1 X349.21Y29.987
M5
G0 X353.243Y31.94
M3
G1 Y32.066
G1 X353.559Y32.129
G1 X353.622Y32.444
G1 X353.748
G1 X353.811Y32.948
G1 X353.937
G1 Y33.768
G1 X353.811
G1 X353.748Y34.02
G1 X353.622
G1 Y34.146
G1 X353.408Y34.186
G1 X353.205Y34.203
G1 X353.005Y34.182
G1 X352.802Y34.106
G1 X352.686Y34.028
G1 X352.621Y33.968
G1 X352.585Y33.897
G1 X352.554Y33.783
G1 X352.55Y33.642
G1 X352.361Y33.579
G1 Y33.264
G1 X352.235
G1 X352.205Y33.008
G1 X352.188Y32.759
G1 X352.194Y32.51
G1 X352.235Y32.255
G1 X352.361
G1 X352.424Y32.066
G1 X352.55
G1 Y31.94
G1 X352.758Y31.904
G1 X352.899Y31.892
G1 X353.04Y31.904
G1 X353.243Y31.94
M5
G0 X353.306Y31.247
M3
G1 X352.361
G1 Y31.373
G1 X352.046
G1 Y31.499
G1 X351.928Y31.546
G1 X351.831Y31.614
G1 X351.764Y31.684
G1 X351.715Y31.769
G1 X351.668Y31.877
G1 X351.542
G1 X351.497Y32.108
G1 X351.473Y32.339
G1 X351.463Y32.572
G1 X351.459Y32.807
G1 X351.454Y32.97
G1 X351.469Y33.254
G1 X351.52Y33.513
G1 X351.607Y33.763
G1 X351.731Y34.02
G1 X351.857
G1 X351.92Y34.335
G1 X352.046
G1 Y34.461
G1 X352.421Y34.658
G1 X352.558Y34.706
G1 X352.739Y34.713
G1 Y34.839
G1 X353.811
G1 Y34.713
G1 X353.98Y34.701
G1 X354.148Y34.646
G1 X354.277Y34.571
G1 X354.388Y34.47
G1 X354.504Y34.335
G1 Y34.146
G1 X354.63
G1 X354.694Y33.757
G1 X354.71Y33.359
G1 X354.687Y32.961
G1 X354.63Y32.57
G1 X354.504
G1 X354.52Y32.436
G1 X354.49Y32.273
G1 X354.434Y32.137
G1 X354.353Y32.01
G1 X354.252Y31.877
G1 X354.126
G1 Y31.751
G1 X353.964Y31.605
G1 X353.857Y31.531
G1 X353.759Y31.503
G1 X353.622Y31.499
G1 Y31.373
G1 X353.306
G1 Y31.247
M5
G0 X356.898Y30.176
M3
G1 X356.583
G1 Y30.554
G1 X356.709
G1 X356.705Y30.786
G1 X356.72Y31.082
G1 X356.772Y31.373
G1 X356.331
G1 X356.394Y31.94
G1 X356.898
G1 Y32.066
G1 X357.024
G1 X357.087Y32.948
G1 X357.214
G1 X357.21Y33.173
G1 X357.229Y33.534
G1 X357.277Y33.894
G1 Y34.083
G1 X356.772Y34.146
G1 Y34.524
G1 X356.898
G1 X356.961Y34.839
G1 X357.781
G1 Y34.713
G1 X358.096Y34.65
G1 X358.127Y34.378
G1 X358.143Y34.113
G1 X358.136Y33.849
G1 X358.096Y33.579
G1 X358.033Y33.516
G1 X357.997Y33.278
G1 X357.907Y32.57
G1 X357.781
G1 X357.785Y32.326
G1 X357.779Y32.095
G1 X357.718Y31.94
G1 X358.096
G1 X358.1Y31.586
G1 Y31.509
G1 X358.096Y31.436
G1 X358.056Y31.4
G1 X358.013Y31.38
G1 X357.939Y31.372
G1 X357.808Y31.369
G1 X357.592Y31.373
G1 Y31.184
G1 X357.466
G1 X357.469Y30.944
G1 X357.459Y30.715
G1 X357.403Y30.491
G1 X357.214
G1 Y30.365
G1 X356.898Y30.302
G1 Y30.176
M5
G0 X359.041Y31.247
M3
G1 X358.87Y31.332
G1 X358.746Y31.424
G1 X358.646Y31.542
G1 X358.545Y31.704
G1 X358.498Y31.894
G1 X358.474Y32.071
G1 X358.467Y32.249
G1 X358.474Y32.444
G1 X358.6
G1 X358.663Y33.453
G1 X358.789
G1 X358.785Y33.677
G1 X358.796Y33.949
G1 X358.829Y34.204
G1 X358.888Y34.455
G1 X358.978Y34.713
G1 X359.734
G1 X359.776Y34.609
G1 X359.786Y34.522
G1 X359.773Y34.434
G1 X359.71Y34.169
G1 X359.659Y33.982
G1 X359.604Y33.795
G1 X359.528Y33.438
G1 X359.482Y33.075
G1 X359.356
G1 Y31.94
G1 X359.986
G1 Y32.066
G1 X360.238Y32.129
G1 Y32.255
G1 X360.364
G1 X360.463Y32.506
G1 X360.553Y32.759
G1 X360.679
G1 X360.742Y33.516
G1 X360.868
G1 X360.865Y33.74
G1 X360.872Y33.998
G1 X360.901Y34.239
G1 X360.959Y34.475
G1 X361.058Y34.713
G1 X361.814
G1 X361.751Y34.083
G1 X361.625
G1 X361.562Y33.138
G1 X361.436
G1 X361.447Y32.941
G1 X361.421Y32.541
G1 X361.35Y32.144
G1 X361.245Y31.754
G1 X361.121Y31.373
G1 X360.49
G1 X360.427Y31.625
G1 X360.286Y31.507
G1 X359.993Y31.33
G1 X359.699Y31.244
G1 X359.388Y31.224
G1 X359.041Y31.247
M5
G0 X363.704Y31.94
M3
G1 Y32.066
G1 X363.956Y32.129
G1 X363.976Y32.251
G1 X364.019Y32.381
G1 X364.208Y32.444
G1 Y32.633
G1 X362.759
G1 X362.822Y32.066
G1 X363.011
G1 Y31.94
G1 X363.219Y31.904
G1 X363.36Y31.892
G1 X363.5Y31.904
G1 X363.704Y31.94
M5
G0 X363.354Y31.231
M3
G1 X363.105
G1 X362.971Y31.244
G1 X362.856Y31.268
G1 X362.749Y31.308
G1 X362.633Y31.373
G1 Y31.499
G1 X362.491Y31.503
G1 X362.356Y31.565
G1 X362.262Y31.644
G1 X362.189Y31.747
G1 X362.119Y31.88
G1 X362.019Y32.161
G1 X361.961Y32.436
G1 X361.937Y32.715
G1 X361.94Y33.012
G1 X362.066
G1 Y33.264
G1 X364.397
G1 X364.387Y33.428
G1 X364.375Y33.556
G1 X364.359Y33.656
G1 X364.335Y33.738
G1 X364.247Y33.889
G1 X364.082Y34.083
G1 X363.769Y34.129
G1 X363.452Y34.146
G1 Y34.02
G1 X363.33Y34
G1 X363.2Y33.957
G1 X363.137Y33.768
G1 X363.011
G1 X362.948Y33.453
G1 X362.419Y33.496
G1 X362.26Y33.521
G1 X362.129Y33.579
G1 X362.252Y34.016
G1 X362.292Y34.092
G1 X362.326Y34.136
G1 X362.373Y34.165
G1 X362.451Y34.195
G1 X362.57Y34.209
G1 X362.59Y34.323
G1 X362.628Y34.43
G1 X362.672Y34.511
G1 X362.732Y34.58
G1 X362.822Y34.65
G1 X363.051Y34.69
G1 X363.263Y34.713
G1 Y34.839
G1 X364.334
G1 Y34.713
G1 X364.713Y34.65
G1 Y34.524
G1 X364.902Y34.461
G1 Y34.209
G1 X365.028
G1 X365.12Y33.772
G1 X365.148Y33.651
G1 X365.217Y33.579
G1 Y33.358
G1 Y33.138
G1 X365.091
G1 X365.095Y32.901
G1 X365.083Y32.638
G1 X365.028Y32.381
G1 X364.902
G1 X364.886Y32.2
G1 X364.839Y32.003
G1 X364.713Y31.931
G1 X364.586Y31.877
G1 X364.523Y31.688
G1 X364.397
G1 X364.334Y31.499
G1 X364.145
G1 Y31.373
G1 X363.95Y31.296
G1 X363.76Y31.253
G1 X363.565Y31.235
G1 X363.354Y31.231
M5
G0 X368.683Y31.247
M3
G1 X368.067Y31.229
G1 X367.925Y31.248
G1 X367.814Y31.282
G1 X367.716Y31.341
G1 X367.611Y31.436
G1 Y31.562
G1 X367.485
G1 X367.359Y31.688
G1 X367.277Y31.602
G1 X367.164Y31.499
G1 X367.06Y31.428
G1 X366.942Y31.387
G1 X366.792Y31.373
G1 Y31.247
G1 X365.91
G1 Y31.373
G1 X365.721
G1 Y31.499
G1 X365.532Y31.562
G1 X365.427Y32.048
G1 X365.406Y32.192
G1 X365.469Y32.255
G1 X365.504Y32.525
G1 X365.595Y33.327
G1 X365.721
G1 X365.784Y34.209
G1 X365.91
G1 Y34.713
G1 X366.666
G1 X366.603Y33.831
G1 X366.477
G1 X366.434Y33.148
G1 X366.421Y33.032
G1 X366.409Y32.966
G1 X366.388Y32.925
G1 X366.351Y32.885
G1 X366.331Y32.683
G1 X366.299Y32.256
G1 X366.291Y32.098
G1 X366.288Y31.94
G1 X366.792
G1 Y32.066
G1 X366.942Y32.082
G1 X367.041Y32.101
G1 X367.099Y32.123
G1 X367.137Y32.163
G1 X367.178Y32.236
G1 X367.233Y32.381
G1 X367.332Y32.563
G1 X367.433Y32.844
G1 X367.485Y33.138
G1 X367.611
G1 X367.607Y33.366
G1 X367.624Y33.694
G1 X367.674Y34.02
G1 X367.8
G1 X367.796Y34.26
G1 X367.807Y34.488
G1 X367.863Y34.713
G1 X368.557
G1 X368.547Y34.176
G1 X368.494Y33.642
G1 X368.367
G1 X368.375Y33.417
G1 X368.361Y33.174
G1 X368.308Y32.933
G1 X368.217Y32.441
G1 X368.178Y31.94
G1 X368.683
G1 Y32.066
G1 X368.832Y32.082
G1 X368.932Y32.101
G1 X368.99Y32.124
G1 X369.028Y32.165
G1 X369.069Y32.24
G1 X369.124Y32.381
G1 X369.215Y32.525
G1 X369.336Y32.788
G1 X369.415Y33.067
G1 X369.462Y33.266
G1 X369.506Y33.491
G1 X369.541Y33.717
G1 X369.57Y33.879
G1 X369.628Y33.957
G1 X369.663Y34.147
G1 X369.754Y34.713
G1 X370.573
G1 Y34.461
G1 X370.447
G1 X370.459Y34.264
G1 X370.441Y33.962
G1 X370.394Y33.664
G1 X370.329Y33.369
G1 X370.258Y33.075
G1 X370.132
G1 X370.069Y32.066
G1 X369.943
G1 X369.947Y31.826
G1 X369.936Y31.598
G1 X369.88Y31.373
G1 X369.314Y31.361
G1 X369.082Y31.398
G1 X368.872Y31.499
G1 Y31.373
G1 X368.683
G1 Y31.247
M5
G0 X370.825Y30.176
M3
G1 X370.573
G1 X370.595Y30.482
G1 X370.627Y30.782
G1 X370.68Y31.078
G1 X370.762Y31.373
G1 X370.258
G1 Y31.688
G1 X370.384
G1 Y31.94
G1 X370.951
G1 Y32.381
G1 X371.077
G1 X371.14Y33.327
G1 X371.266
G1 X371.262Y33.559
G1 X371.277Y33.854
G1 X371.329Y34.146
G1 X370.762
G1 X370.825Y34.713
G1 X370.951
G1 Y34.839
G1 X371.77
G1 Y34.713
G1 X372.022Y34.65
G1 Y34.524
G1 X372.149
G1 X372.155Y34.038
G1 X372.141Y33.904
G1 X372.086Y33.831
G1 X372.05Y33.608
G1 X371.959Y32.948
G1 X371.833
G1 X371.837Y32.724
G1 X371.819Y32.362
G1 X371.77Y32.003
G1 X371.959Y31.94
G1 Y32.066
G1 X372.338
G1 Y31.94
G1 X372.527
G1 Y32.066
G1 X372.676Y32.082
G1 X372.777Y32.101
G1 X372.836Y32.125
G1 X372.876Y32.169
G1 X372.92Y32.247
G1 X373.031Y32.57
G1 X373.157
G1 X373.22Y33.075
G1 X373.346
G1 X373.355Y33.222
G1 X373.417Y33.784
G1 X373.535Y34.335
G1 X373.598Y34.713
G1 X374.417
G1 Y34.524
G1 X374.291
G1 X374.228Y33.642
G1 X374.102
G1 X374.106Y33.417
G1 Y33.037
G1 X374.099Y32.916
G1 X374.09Y32.829
G1 X374.051Y32.719
G1 X373.976Y32.633
G1 X373.945Y32.441
G1 X373.917Y32.247
G1 X373.839Y31.806
G1 X373.724Y31.373
G1 X373.031
G1 Y31.562
G1 X372.952Y31.475
G1 X372.793Y31.352
G1 X372.634Y31.278
G1 X372.461Y31.244
G1 X372.259Y31.239
G1 X372.088Y31.243
G1 X371.959Y31.247
G1 Y31.373
G1 X371.518
G1 Y31.203
G1 X371.511Y31.002
G1 X371.503Y30.849
G1 X371.491Y30.733
G1 X371.473Y30.645
G1 X371.405Y30.513
G1 X371.278Y30.377
G1 X371.071Y30.311
G1 X370.825Y30.302
G1 Y30.176
M5
G0 X375.614Y33.138
M3
G1 Y33.264
G1 X375.764Y33.259
G1 X376.099
G1 X376.408Y33.285
G1 X376.705Y33.362
G1 X377.001Y33.516
G1 X377.019Y33.642
G1 X377.001Y34.02
G1 X376.875
G1 Y34.146
G1 X376.736Y34.196
G1 X376.599Y34.215
G1 X376.457
G1 X376.308Y34.209
G1 X376.119Y34.146
G1 Y34.02
G1 X375.803Y33.894
G1 Y33.768
G1 X375.677
G1 X375.614Y33.327
G1 X375.488
G1 Y33.138
G1 X375.614
M5
G0 X375.898Y31.231
M3
G1 X375.753
G1 X375.579
G1 X375.418Y31.25
G1 X375.263Y31.293
G1 X375.11Y31.373
G1 Y31.499
G1 X374.965Y31.519
G1 X374.846Y31.554
G1 X374.759Y31.597
G1 X374.685Y31.658
G1 X374.606Y31.751
G1 X374.588Y31.885
G1 Y32.193
G1 X374.594Y32.362
G1 X374.606Y32.948
G1 X374.732
G1 X374.795Y33.831
G1 X374.921
G1 X374.872Y34.354
G1 X374.86Y34.526
G1 Y34.713
G1 X375.614
G1 Y34.524
G1 X375.803
G1 Y34.65
G1 X376.182Y34.713
G1 Y34.839
G1 X377.19
G1 Y34.713
G1 X377.332Y34.709
G1 X377.463Y34.652
G1 X377.561Y34.581
G1 X377.639Y34.487
G1 X377.712Y34.363
G1 X377.774Y34.064
G1 X377.792Y33.748
G1 X377.765Y33.434
G1 X377.694Y33.138
G1 X377.562Y33
G1 X377.411Y32.901
G1 X377.244Y32.825
G1 X377.064Y32.759
G1 X376.854Y32.751
G1 X376.686Y32.759
G1 Y32.633
G1 X375.425Y32.57
G1 Y32.444
G1 X375.299
G1 Y32.129
G1 X375.488Y32.066
G1 Y31.94
G1 X376.308
G1 Y32.066
G1 X376.623Y32.129
G1 X376.686Y32.444
G1 X377.505
G1 Y32.192
G1 X377.379
G1 X377.367Y32.054
G1 X377.308Y31.899
G1 X377.229Y31.778
G1 X377.128Y31.671
G1 X377.001Y31.562
G1 X376.829Y31.516
G1 X376.686Y31.499
G1 Y31.373
G1 X376.499Y31.281
G1 X376.306Y31.24
G1 X376.106Y31.229
G1 X375.898
M5
G0 X379.648Y31.94
M3
G1 Y32.066
G1 X379.9Y32.129
G1 X379.963Y32.381
G1 X380.089
G1 X380.152Y32.759
G1 X380.278
G1 X380.333Y33.092
G1 X380.349Y33.429
G1 Y33.609
G1 X380.337Y33.735
G1 X380.312Y33.848
G1 X380.268Y33.955
G1 X380.2Y34.062
G1 X380.094Y34.126
G1 X379.994Y34.155
G1 X379.888Y34.162
G1 X379.59Y34.152
G1 X379.458Y34.146
G1 Y34.02
G1 X379.34Y33.965
G1 X379.201Y33.89
G1 X379.08Y33.768
G1 Y33.579
G1 X378.954
G1 X378.891Y32.948
G1 X378.765
G1 Y32.444
G1 X378.891
G1 X378.954Y32.066
G1 X379.08
G1 Y31.94
G1 X379.648
M5
G0 X379.648Y31.247
M3
G1 X379.032Y31.235
G1 X378.902Y31.247
G1 X378.792Y31.27
G1 X378.688Y31.31
G1 X378.576Y31.373
G1 Y31.499
G1 X378.387Y31.562
G1 Y31.688
G1 X378.261
G1 X378.12Y31.915
G1 X378.056Y32.157
G1 X378.042Y32.413
G1 X378.045Y32.681
G1 X378.041Y32.862
G1 X378.057Y33.159
G1 X378.108Y33.429
G1 X378.196Y33.689
G1 X378.324Y33.957
G1 X378.45Y34.209
G1 X378.576
G1 Y34.335
G1 X378.702
G1 X378.765Y34.524
G1 X378.891
G1 Y34.65
G1 X379.269Y34.713
G1 Y34.839
G1 X380.152
G1 Y34.713
G1 X380.301Y34.689
G1 X380.462Y34.639
G1 X380.593Y34.524
G1 X380.656Y35.028
G1 X380.782
G1 X380.778Y35.253
G1 X380.795Y35.614
G1 X380.845Y35.973
G1 X380.921Y36.029
G1 X381.079Y36.042
G1 X381.664Y36.036
G1 Y35.805
G1 X381.641Y35.59
G1 X381.599Y35.377
G1 X381.538Y35.154
G1 X381.475Y34.713
G1 X381.412Y34.65
G1 X381.392Y34.522
G1 X381.377Y34.394
G1 X381.349Y34.146
G1 X381.223
G1 X381.227Y33.921
G1 X381.196Y33.448
G1 X381.097Y32.984
G1 X381.018Y32.623
G1 X380.971Y32.255
G1 X380.845
G1 X380.849Y32.027
G1 X380.832Y31.699
G1 X380.782Y31.373
G1 X380.089
G1 Y31.562
G1 X379.837Y31.499
G1 Y31.373
G1 X379.648
G1 Y31.247
M5
G0 X383.303Y31.94
M3
G1 Y32.066
G1 X383.555Y32.129
G1 X383.618Y32.381
G1 X383.744
G1 X383.807Y32.633
G1 X382.231
G1 X382.271Y32.453
G1 X382.304Y32.316
G1 X382.335Y32.213
G1 X382.368Y32.137
G1 X382.456Y32.032
G1 X382.605Y31.936
G1 X382.785Y31.894
G1 X382.955Y31.883
G1 X383.124Y31.899
G1 X383.303Y31.94
M5
G0 X383.429Y31.247
M3
G1 X382.841Y31.236
G1 X382.675
G1 X382.523Y31.255
G1 X382.378Y31.296
G1 X382.231Y31.373
G1 Y31.499
G1 X382.086Y31.519
G1 X381.964Y31.553
G1 X381.875Y31.591
G1 X381.801Y31.652
G1 X381.727Y31.751
G1 X381.688Y32.002
G1 X381.664Y32.255
G1 X381.538
G1 Y33.264
G1 X383.996
G1 X383.933Y33.831
G1 X383.807
G1 Y34.02
G1 X383.519Y34.096
G1 X383.266Y34.109
G1 X383.015Y34.061
G1 X382.735Y33.957
G1 Y33.831
G1 X382.609
G1 X382.586Y33.713
G1 X382.536Y33.58
G1 X382.42Y33.453
G1 X382.286
G1 X381.985Y33.491
G1 X381.854Y33.52
G1 X381.727Y33.579
G1 X381.803Y33.869
G1 X381.916Y34.146
G1 X382.048Y34.192
G1 X382.168Y34.209
G1 X382.188Y34.323
G1 X382.226Y34.43
G1 X382.27Y34.511
G1 X382.331Y34.58
G1 X382.42Y34.65
G1 X382.65Y34.69
G1 X382.861Y34.713
G1 Y34.839
G1 X383.342Y34.851
G1 X383.478Y34.856
G1 X383.689Y34.848
G1 X383.877Y34.815
G1 X384.057Y34.751
G1 X384.248Y34.65
G1 Y34.524
G1 X384.437
G1 X384.5Y34.209
G1 X384.626
G1 X384.684Y33.969
G1 X384.697Y33.723
G1 Y32.851
G1 X384.672Y32.615
G1 X384.626Y32.381
G1 X384.5
G1 X384.488Y32.247
G1 X384.426Y32.081
G1 X384.346Y31.944
G1 X384.245Y31.82
G1 X384.122Y31.688
G1 X383.996
G1 X383.933Y31.499
G1 X383.744
G1 Y31.373
G1 X383.429
G1 Y31.247
M5
G0 X387.714Y30.743
M3
G1 X387.775Y30.93
G1 X387.781Y31.129
G1 X387.777Y31.373
G1 X387.903
G1 X387.995Y32.056
G1 X388.016Y32.172
G1 X388.032Y32.238
G1 X388.055Y32.279
G1 X388.092Y32.318
G1 X388.125Y32.539
G1 X388.173Y32.903
G1 X388.201Y33.091
G1 X388.213Y33.148
G1 X388.24Y33.216
G1 X388.281Y33.264
G1 X388.313Y33.484
G1 X388.344Y33.705
G1 X388.407Y34.02
G1 X387.241Y34.027
G1 X387.003Y34.003
G1 X386.768Y33.957
G1 Y33.831
G1 X386.516Y33.768
G1 Y33.642
G1 X386.327Y33.579
G1 Y33.453
G1 X386.201
G1 X386.117Y33.329
G1 X386.059Y33.217
G1 X386.024Y33.097
G1 X386.012Y32.948
G1 X385.886
G1 X385.84Y32.712
G1 X385.819Y32.475
G1 X385.814Y32.236
G1 Y31.505
G1 X385.826Y31.357
G1 X385.886Y31.184
G1 X386.012
G1 Y31.058
G1 X386.305Y30.888
G1 X386.61Y30.788
G1 X386.93Y30.743
G1 X387.269Y30.735
G1 X387.714Y30.743
M5
G0 X388.407Y30.113
M3
G1 X386.634Y30.106
G1 X386.258Y30.122
G1 X385.886Y30.176
G1 Y30.302
G1 X385.634Y30.365
G1 Y30.491
G1 X385.382Y30.554
G1 X385.319Y30.806
G1 X385.193
G1 X385.13Y31.184
G1 X385.004
G1 X384.957Y31.843
G1 X384.945Y32.062
G1 X384.941Y32.233
G1 X384.957Y32.508
G1 X385.004Y32.822
G1 X385.13
G1 X385.133Y32.929
G1 X385.166Y33.199
G1 X385.234Y33.445
G1 X385.345Y33.674
G1 X385.508Y33.894
G1 X385.634
G1 X385.65Y34.007
G1 X385.7Y34.121
G1 X385.762Y34.205
G1 X385.841Y34.276
G1 X386.075Y34.45
G1 X386.209Y34.515
G1 X386.39Y34.524
G1 Y34.65
G1 X386.62Y34.695
G1 X386.85Y34.715
G1 X387.081Y34.72
G1 X389.352Y34.713
G1 X389.309Y34.227
G1 X389.284Y34.093
G1 X389.226Y34.02
G1 X389.194Y33.865
G1 X389.165Y33.71
G1 X388.974Y32.633
G1 X388.848
G1 X388.785Y31.688
G1 X388.659
G1 X388.667Y31.472
G1 X388.628Y31.04
G1 X388.533Y30.617
G1 X388.407Y30.113
M5
G0 X382.105Y39.187
M3
G1 X381.475
G1 Y39.313
G1 X380.971
G1 X380.965Y39.836
G1 X380.978Y40.009
G1 X381.034Y40.195
G1 X381.204
G1 X381.357Y40.176
G1 X381.507Y40.134
G1 X381.664Y40.069
G1 X381.763Y40.32
G1 X381.853Y40.574
G1 X380.782
G1 Y40.258
G1 X380.719Y40.195
G1 X380.699Y40.068
G1 X380.683Y39.939
G1 X380.656Y39.691
G1 X380.53
G1 X380.51Y39.573
G1 X380.482Y39.494
G1 X380.449Y39.44
G1 X380.388Y39.388
G1 X380.278Y39.313
G1 X380.029Y39.229
G1 X379.782Y39.19
G1 X379.531Y39.181
G1 X379.269Y39.187
G1 Y39.313
G1 X378.765
G1 X378.753Y39.781
G1 X378.795Y39.997
G1 X378.891Y40.195
G1 X379.176Y40.137
G1 X379.458Y40.069
G1 Y40.195
G1 X379.585
G1 X379.648Y40.574
G1 X378.954
G1 Y41.456
G1 X379.648
G1 Y44.166
G1 X380.719
G1 X380.755Y44.125
G1 X380.775Y44.079
G1 X380.784Y43.998
G1 X380.789Y43.852
G1 X380.782Y41.456
G1 X381.853
G1 Y44.166
G1 X382.861
G1 X382.898Y44.125
G1 X382.917Y44.079
G1 X382.926Y43.998
G1 X382.932Y43.852
G1 X382.924Y41.456
G1 X383.429
G1 Y40.574
G1 X382.924
G1 X382.888Y40.014
G1 X382.857Y39.825
G1 X382.807Y39.663
G1 X382.724Y39.52
G1 X382.59Y39.388
G1 X382.466Y39.341
G1 X382.353Y39.315
G1 X382.237Y39.307
G1 X382.105Y39.313
G1 Y39.187
M5
G0 X378.702Y39.313
M3
G1 X377.568
G1 Y40.258
G1 X378.702
G1 Y39.313
M5
G0 X378.639Y40.574
M3
G1 X377.568
G1 Y44.166
G1 X378.639
G1 X378.695Y44.081
G1 X378.715Y43.987
G1 Y43.885
G1 X378.71Y43.778
G1 Y40.775
G1 X378.695Y40.646
G1 X378.639Y40.574
M5
G0 X374.913Y40.507
M3
G1 X374.543Y40.574
G1 Y40.7
G1 X374.362Y40.715
G1 X374.247Y40.745
G1 X374.179Y40.773
G1 X374.132Y40.817
G1 X374.078Y40.893
G1 X374.039Y41.015
G1 X373.913
G1 X373.85Y41.393
G1 X373.724
G1 X373.661Y41.771
G1 X373.766Y41.814
G1 X373.863Y41.834
G1 X373.963Y41.839
G1 X374.354Y41.834
G1 Y41.96
G1 X374.732
G1 X374.795Y41.645
G1 X374.984Y41.582
G1 Y41.456
G1 X375.36Y41.499
G1 X375.505Y41.523
G1 X375.677Y41.582
G1 X375.751Y41.803
G1 X375.803Y42.023
G1 X375.93
G1 Y42.653
G1 X375.803
G1 X375.744Y42.834
G1 X375.699Y42.984
G1 X375.654Y43.075
G1 X375.586Y43.145
G1 X375.469Y43.232
G1 X375.35Y43.262
G1 X375.255Y43.27
G1 X375.161Y43.256
G1 X375.047Y43.22
G1 X374.795Y43.157
G1 X374.732Y42.716
G1 X374.417Y42.653
G1 Y42.779
G1 X373.999Y42.773
G1 X373.796Y42.795
G1 X373.598Y42.842
G1 Y43.016
G1 X373.621Y43.165
G1 X373.673Y43.307
G1 X373.755Y43.461
G1 X373.844Y43.611
G1 X373.913Y43.724
G1 X374.039
G1 X374.102Y43.913
G1 X374.228
G1 Y44.039
G1 X374.474Y44.162
G1 X374.713Y44.227
G1 X374.96Y44.251
G1 X375.398Y44.254
G1 X375.644Y44.243
G1 X375.867Y44.207
G1 X376.083Y44.141
G1 X376.308Y44.039
G1 Y43.913
G1 X376.426Y43.902
G1 X376.504Y43.87
G1 X376.553Y43.837
G1 X376.591Y43.783
G1 X376.638Y43.689
G1 X376.686Y43.535
G1 X376.812
G1 X376.915Y43.237
G1 X376.979Y42.946
G1 X377.01Y42.65
G1 X377.013Y42.334
G1 X377.001Y41.771
G1 X376.875
G1 X376.812Y41.267
G1 X376.686
G1 X376.67Y41.149
G1 X376.612Y41.022
G1 X376.493Y40.936
G1 X376.371Y40.889
G1 Y40.763
G1 X375.993Y40.7
G1 Y40.574
G1 X375.562Y40.53
G1 X375.309Y40.495
G1 X375.224Y40.485
G1 X375.157Y40.48
G1 X375.046Y40.485
G1 X374.913Y40.507
M5
G0 X372.022Y41.456
M3
G1 Y41.582
G1 X372.149
G1 X372.212Y41.96
G1 X371.14
G1 Y41.834
G1 X371.266
G1 X371.329Y41.582
G1 X371.455
G1 Y41.456
G1 X371.604Y41.424
G1 X371.74Y41.41
G1 X371.875Y41.419
G1 X372.022Y41.456
M5
G0 X371.644Y40.511
M3
G1 X371.499Y40.53
G1 X371.077Y40.574
G1 Y40.7
G1 X370.699Y40.763
G1 Y40.889
G1 X370.573
G1 X370.471Y41.009
G1 X370.414Y41.111
G1 X370.389Y41.228
G1 X370.384Y41.393
G1 X370.258
G1 X370.139Y41.735
G1 X370.084Y42.063
G1 X370.069Y42.402
G1 Y42.779
G1 X372.275
G1 X372.149Y43.157
G1 X371.959Y43.22
G1 Y43.346
G1 X371.455
G1 Y43.22
G1 X371.329Y43.157
G1 X371.266Y42.968
G1 X371.002Y42.961
G1 X370.799Y42.957
G1 X370.645
G1 X370.526Y42.967
G1 X370.339Y43.008
G1 X370.132Y43.094
G1 X370.183Y43.335
G1 X370.27Y43.553
G1 X370.388Y43.759
G1 X370.53Y43.961
G1 X370.809Y44.123
G1 X371.092Y44.212
G1 X371.39Y44.248
G1 X371.878Y44.254
G1 X372.107Y44.245
G1 X372.312Y44.212
G1 X372.51Y44.147
G1 X372.897Y43.945
G1 X373.031Y43.85
G1 Y43.661
G1 X373.157
G1 X373.264Y43.429
G1 X373.345Y43.186
G1 X373.4Y42.935
G1 X373.433Y42.678
G1 X373.438Y42.157
G1 X373.373Y41.645
G1 X373.304Y41.453
G1 X373.22Y41.267
G1 X373.137Y41.09
G1 X373.031Y40.968
G1 X372.917Y40.869
G1 X372.792Y40.782
G1 X372.653Y40.7
G1 X372.464
G1 Y40.574
G1 X371.934Y40.469
G1 X371.775Y40.458
G1 X371.644Y40.511
M5
G0 X367.674Y39.313
M3
G1 X366.603
G1 Y41.141
G1 X364.902
G1 Y39.313
G1 X363.704
G1 X363.697Y43.432
G1 Y43.968
G1 X363.706Y44.066
G1 X363.727Y44.12
G1 X363.767Y44.166
G1 X363.894Y44.171
G1 X364.161
G1 X364.902Y44.166
G1 Y42.149
G1 X366.603
G1 Y44.166
G1 X367.674
G1 Y39.313
M5
G0 X361.562Y41.456
M3
G1 Y41.582
G1 X361.707Y41.586
G1 X361.818Y41.615
G1 X361.884Y41.65
G1 X361.933Y41.714
G1 X361.991Y41.83
G1 X362.053Y42.048
G1 X362.084Y42.268
G1 X362.088Y42.49
G1 X362.066Y42.716
G1 X361.948Y42.921
G1 X361.809Y43.088
G1 X361.64Y43.226
G1 X361.436Y43.346
G1 X361.282Y43.327
G1 X361.141Y43.287
G1 X361.006Y43.229
G1 X360.868Y43.157
G1 Y43.031
G1 X360.742
G1 X360.64Y42.795
G1 X360.592Y42.63
G1 X360.588Y42.462
G1 X360.616Y42.212
G1 X360.672Y41.984
G1 X360.716Y41.855
G1 X360.764Y41.753
G1 X360.831Y41.666
G1 X360.931Y41.582
G1 X361.058
G1 Y41.456
G1 X361.562
M5
G0 X361.373Y40.448
M3
G1 X361.197Y40.475
G1 X361.022Y40.507
G1 X360.679Y40.574
G1 Y40.7
G1 X360.475Y40.719
G1 X360.325Y40.751
G1 X360.206Y40.791
G1 X360.098Y40.854
G1 X359.986Y40.952
G1 Y41.078
G1 X359.86
G1 X359.797Y41.393
G1 X359.671
G1 Y41.582
G1 X359.545
G1 X359.484Y41.991
G1 X359.474Y42.405
G1 Y42.54
G1 X359.484Y42.852
G1 X359.545Y43.157
G1 X359.671
G1 Y43.409
G1 X359.797
G1 X359.809Y43.52
G1 X359.873Y43.647
G1 X359.957Y43.744
G1 X360.058Y43.827
G1 X360.175Y43.913
G1 X360.238Y44.039
G1 X360.501Y44.157
G1 X360.759Y44.222
G1 X361.025Y44.249
G1 X361.48Y44.254
G1 X361.709Y44.245
G1 X361.915Y44.213
G1 X362.112Y44.148
G1 X362.318Y44.039
G1 Y43.913
G1 X362.633Y43.85
G1 Y43.724
G1 X362.822Y43.661
G1 X362.91Y43.503
G1 X362.969Y43.362
G1 X363.001Y43.213
G1 X363.011Y43.031
G1 X363.137
G1 Y41.771
G1 X363.011
G1 X362.991Y41.566
G1 X362.96Y41.417
G1 X362.92Y41.297
G1 X362.857Y41.19
G1 X362.759Y41.078
G1 X362.633
G1 Y40.952
G1 X362.475Y40.79
G1 X362.284Y40.674
G1 X362.072Y40.597
G1 X361.85Y40.55
G1 X361.7Y40.536
G1 X361.55Y40.524
G1 X361.441Y40.513
G1 X361.373Y40.448
M5
G0 X358.978Y40.574
M3
G1 X357.907
G1 Y42.968
G1 X357.781
G1 X357.718Y43.283
G1 X357.499Y43.288
G1 X357.298Y43.277
G1 X357.102Y43.238
G1 X356.898Y43.157
G1 Y42.968
G1 X356.772
G1 Y40.574
G1 X355.701
G1 Y44.166
G1 X356.709
G1 Y43.913
G1 X357.024Y44.039
G1 Y44.166
G1 X357.202Y44.211
G1 X357.379Y44.234
G1 X357.558Y44.243
G1 X357.741
G1 X357.885Y44.248
G1 X358.087Y44.242
G1 X358.262Y44.213
G1 X358.427Y44.149
G1 X358.6Y44.039
G1 X358.71Y43.961
G1 X358.781Y43.831
G1 X358.819Y43.698
G1 X358.839Y43.558
G1 X358.852Y43.409
G1 X358.978
G1 Y40.574
M5
G0 X353.066Y40.538
M3
G1 X352.739Y40.574
G1 Y40.7
G1 X352.613
G1 Y41.078
G1 X352.739
G1 X352.767Y41.219
G1 X352.814Y41.433
G1 X352.865Y41.645
G1 X353.748
G1 X353.792Y42.087
G1 X353.808Y42.178
G1 X353.832Y42.23
G1 X353.874Y42.275
G1 X353.886Y42.485
G1 X353.894Y42.695
G1 X353.937Y44.166
G1 X355.008
G1 Y40.574
G1 X354
G1 X353.874Y40.7
G1 X353.748
G1 Y40.574
G1 X353.409Y40.524
G1 X353.066Y40.538
M5
G0 X350.683Y40.507
M3
G1 X350.282Y40.574
G1 Y40.7
G1 X350.144Y40.684
G1 X349.988Y40.71
G1 X349.868Y40.76
G1 X349.763Y40.838
G1 X349.651Y40.952
G1 X349.605Y41.184
G1 X349.588Y41.393
G1 X349.462
G1 Y41.582
G1 X349.615Y41.635
G1 X349.769Y41.653
G1 X349.928
G1 X350.093Y41.645
G1 Y41.771
G1 X350.534
G1 Y41.582
G1 X350.66
G1 Y41.456
G1 X351.479
G1 Y41.582
G1 X351.193Y41.705
G1 X350.888Y41.771
G1 X350.517Y41.847
G1 X350.156Y41.96
G1 Y42.086
G1 X349.777Y42.149
G1 Y42.275
G1 X349.588Y42.338
G1 Y42.464
G1 X349.462
G1 X349.401Y42.742
G1 X349.392Y43.027
G1 Y43.226
G1 X349.403Y43.445
G1 X349.425Y43.575
G1 X349.471Y43.666
G1 X349.558Y43.769
G1 X349.675Y43.866
G1 X349.791Y43.966
G1 X349.913Y44.03
G1 X350.093Y44.039
G1 Y44.166
G1 X350.315Y44.213
G1 X350.538Y44.236
G1 X350.762Y44.243
G1 X350.991
G1 X351.166Y44.248
G1 X351.434Y44.238
G1 X351.681Y44.203
G1 X351.922Y44.138
G1 X352.172Y44.039
G1 Y43.913
G1 X352.424Y43.85
G1 Y43.724
G1 X352.55
G1 X352.613Y43.346
G1 X352.739
G1 Y43.031
G1 X352.484Y42.973
G1 X352.223Y42.964
G1 X351.92Y42.968
G1 Y42.842
G1 X351.668
G1 Y43.031
G1 X351.542
G1 X351.495Y43.153
G1 X351.454Y43.236
G1 X351.418Y43.282
G1 X351.367Y43.308
G1 X351.282Y43.331
G1 X351.164Y43.346
G1 Y43.472
G1 X350.849
G1 Y43.346
G1 X350.534
G1 X350.471Y43.031
G1 X351.038Y42.968
G1 Y42.842
G1 X351.549Y42.805
G1 X351.803Y42.748
G1 X352.046Y42.653
G1 Y42.527
G1 X352.2Y42.48
G1 X352.294Y42.432
G1 X352.347Y42.394
G1 X352.38Y42.346
G1 X352.412Y42.267
G1 X352.424Y42.149
G1 X352.55
G1 X352.6Y41.88
G1 X352.616Y41.613
G1 X352.6Y41.347
G1 X352.55Y41.078
G1 X352.424
G1 X352.361Y40.889
G1 X352.235
G1 Y40.763
G1 X351.857Y40.7
G1 Y40.574
G1 X351.377Y40.53
G1 X351.104Y40.495
G1 X351.013Y40.486
G1 X350.941Y40.481
G1 X350.822Y40.486
G1 X350.683Y40.507
M5
G0 X348.58Y40.574
M3
G1 X347.509
G1 Y41.645
G1 X348.58
G1 Y40.574
M5
G0 X348.29Y43.025
M3
G1 X347.509Y43.031
G1 Y44.166
G1 X348.58
G1 X348.586Y43.466
G1 Y43.28
G1 X348.58Y43.094
G1 X348.54Y43.058
G1 X348.497Y43.038
G1 X348.422Y43.03
G1 X348.29Y43.025
M5
G0 X352.739Y48.388
M3
G1 X350.282
G1 Y49.081
G1 X352.172
G1 Y49.585
G1 X352.201Y49.774
G1 X352.235Y49.963
G1 X352.089Y49.932
G1 X351.778Y49.899
G1 X351.467Y49.891
G1 X351.157Y49.911
G1 X350.849Y49.963
G1 Y50.089
G1 X350.731Y50.105
G1 X350.652Y50.134
G1 X350.605Y50.162
G1 X350.571Y50.205
G1 X350.53Y50.278
G1 X350.471Y50.404
G1 X350.282Y50.467
G1 Y50.593
G1 X350.156
G1 X350.114Y50.765
G1 X350.095Y50.936
G1 X350.09Y51.109
G1 X350.093Y51.286
G1 X349.967
G1 Y51.728
G1 X350.093
G1 X350.089Y51.968
G1 X350.099Y52.196
G1 X350.156Y52.421
G1 X350.282
G1 X350.345Y52.736
G1 X350.471
G1 Y52.862
G1 X350.603Y52.964
G1 X350.73Y53.044
G1 X350.867Y53.1
G1 X351.03Y53.13
G1 X351.164Y53.114
G1 Y53.24
G1 X351.54Y53.251
G1 X351.828Y53.257
G1 X352.046
G1 X352.213Y53.243
G1 X352.468Y53.18
G1 X352.739Y53.051
G1 Y52.925
G1 X352.928Y52.862
G1 Y52.736
G1 X353.054
G1 X353.117Y52.421
G1 X353.243
G1 X353.306Y51.791
G1 X353.196Y51.746
G1 X353.093Y51.726
G1 X352.986Y51.72
G1 X352.696
G1 X352.553Y51.734
G1 X352.424Y51.791
G1 X352.405Y51.964
G1 X352.357Y52.139
G1 X352.291Y52.267
G1 X352.192Y52.374
G1 X352.046Y52.484
G1 X351.785Y52.51
G1 X351.53Y52.503
G1 X351.281Y52.456
G1 X351.038Y52.358
G1 X350.987Y52.166
G1 X350.975Y51.98
G1 X350.849
G1 Y51.16
G1 X350.975
G1 X350.991Y51.011
G1 X351.009Y50.911
G1 X351.032Y50.853
G1 X351.073Y50.815
G1 X351.147Y50.774
G1 X351.372Y50.71
G1 X351.605Y50.68
G1 X351.766Y50.666
G1 X351.969Y50.658
G1 X352.172
G1 X352.235Y50.845
G1 X352.361
G1 X352.424Y51.034
G1 X353.243Y50.971
G1 X353.184Y50.625
G1 X353.114Y50.169
G1 X353.054Y49.711
G1 X352.928
G1 X352.885Y48.831
G1 X352.872Y48.752
G1 X352.852Y48.679
G1 X352.812Y48.572
G1 X352.739Y48.388
M5
G0 X349.153Y49.577
M3
G1 X348.7
G1 X348.532Y49.592
G1 X348.454Y49.648
G1 X348.448Y49.837
G1 Y50.235
G1 X348.461Y50.391
G1 X348.517Y50.467
G1 X348.722Y50.474
G1 X349.153
G1 X349.321Y50.46
G1 X349.399Y50.404
G1 X349.406Y50.215
G1 Y49.817
G1 X349.396Y49.682
G1 X349.365Y49.613
G1 X349.292Y49.586
G1 X349.153Y49.577
M5
G0 X346.816Y49.27
M3
G1 X346.86Y49.412
G1 X346.917Y49.719
G1 X346.939Y49.807
G1 X346.964Y49.856
G1 X347.005Y49.9
G1 X347.01Y50.096
G1 Y50.292
G1 X347.005Y51.665
G1 X346.879
G1 X346.816Y52.232
G1 X346.69
G1 X346.666Y52.354
G1 X346.627Y52.484
G1 X346.446Y52.547
G1 X346.257Y52.57
G1 X346.063Y52.566
G1 X345.87Y52.547
G1 X345.712Y52.436
G1 X345.618Y52.295
G1 Y52.169
G1 X345.492
G1 X345.45Y51.949
G1 X345.43Y51.73
G1 X345.426Y51.51
G1 X345.429Y51.286
G1 X345.303
G1 Y50.278
G1 X345.429
G1 X345.423Y49.81
G1 X345.444Y49.601
G1 X345.492Y49.396
G1 X345.618
G1 X345.666Y49.282
G1 X345.734Y49.174
G1 X345.804Y49.091
G1 X345.888Y49.022
G1 X345.996Y48.955
G1 X346.243Y48.95
G1 X346.453Y48.996
G1 X346.64Y49.1
G1 X346.816Y49.27
M5
G0 X346.186Y48.317
M3
G1 X346.05
G1 X345.736Y48.327
G1 X345.429Y48.388
G1 Y48.514
G1 X345.284Y48.561
G1 X345.163Y48.624
G1 X345.073Y48.693
G1 X344.998Y48.778
G1 X344.925Y48.892
G1 Y49.081
G1 X344.799
G1 X344.736Y49.585
G1 X344.61
G1 X344.555Y50.372
G1 X344.547Y51.16
G1 X344.55Y51.349
G1 X344.591Y51.758
G1 X344.684Y52.161
G1 X344.846Y52.539
G1 X345.091Y52.87
G1 X345.273Y53.011
G1 X345.389Y53.083
G1 X345.487Y53.11
G1 X345.618Y53.114
G1 Y53.24
G1 X346.69
G1 Y53.114
G1 X347.005
G1 X347.068Y52.925
G1 X347.182Y52.909
G1 X347.305Y52.848
G1 X347.391Y52.765
G1 X347.458Y52.662
G1 X347.526Y52.54
G1 X347.552Y52.467
G1 X347.566Y52.404
G1 X347.571Y52.316
G1 Y52.169
G1 X347.698
G1 X347.752Y51.721
G1 X347.769Y51.27
G1 Y49.989
G1 X347.745Y49.691
G1 X347.698Y49.396
G1 X347.572
G1 X347.552Y49.191
G1 X347.521Y49.042
G1 X347.48Y48.922
G1 X347.418Y48.815
G1 X347.32Y48.703
G1 X347.194
G1 Y48.577
G1 X346.962Y48.42
G1 X346.723Y48.343
G1 X346.467Y48.318
G1 X346.186
M5
G0 X342.972Y49.081
M3
G1 X343.078Y49.152
G1 X343.155Y49.297
G1 X343.194Y49.448
G1 X343.212Y49.606
G1 X343.224Y49.774
G1 X343.35
G1 X343.381Y50.281
G1 X343.397Y50.783
G1 X343.39Y51.285
G1 X343.35Y51.791
G1 X343.224
G1 X343.161Y52.232
G1 X343.035
G1 X343.011Y52.354
G1 X342.972Y52.484
G1 X342.859Y52.528
G1 X342.754Y52.548
G1 X342.645Y52.552
G1 X342.215Y52.547
G1 X342.152Y52.358
G1 X342.026
G1 X341.963Y52.043
G1 X341.837
G1 X341.795Y51.867
G1 X341.774Y51.693
G1 X341.767Y51.517
G1 Y49.991
G1 X341.788Y49.723
G1 X341.837Y49.459
G1 X341.963
G1 X342.026Y49.207
G1 X342.152
G1 X342.215Y49.018
G1 X342.451Y48.972
G1 X342.608Y48.963
G1 X342.758Y48.998
G1 X342.972Y49.081
M5
G0 X342.531Y48.317
M3
G1 X342.395
G1 X342.081Y48.327
G1 X341.774Y48.388
G1 Y48.514
G1 X341.664Y48.561
G1 X341.451Y48.707
G1 X341.27Y48.892
G1 Y49.081
G1 X341.144
G1 X341.081Y49.711
G1 X340.955
G1 Y51.854
G1 X341.081
G1 X341.144Y52.421
G1 X341.27
G1 X341.333Y52.736
G1 X341.459
G1 X341.522Y52.925
G1 X341.648
G1 Y53.051
G1 X342.026Y53.114
G1 Y53.24
G1 X343.098
G1 Y53.114
G1 X343.243Y53.09
G1 X343.415Y53.04
G1 X343.602Y52.925
G1 Y52.799
G1 X343.728
G1 X343.837Y52.591
G1 X343.893Y52.462
G1 X343.914Y52.36
G1 X343.917Y52.232
G1 X344.043
G1 X344.104Y51.828
G1 X344.117Y51.419
G1 X344.122Y50.089
G1 X344.085Y49.674
G1 X343.98Y49.27
G1 X343.909Y49.053
G1 X343.854Y48.892
G1 X343.728
G1 Y48.766
G1 X343.602
G1 X343.539Y48.577
G1 X343.308Y48.42
G1 X343.068Y48.343
G1 X342.812Y48.318
G1 X342.531
M5
G0 X337.174Y50.152
M3
G1 Y50.278
G1 X337.489Y50.341
G1 Y50.467
G1 X337.615
G1 X337.678Y50.845
G1 X337.804
G1 Y51.98
G1 X337.678
G1 X337.666Y52.157
G1 X337.645Y52.277
G1 X337.62Y52.35
G1 X337.575Y52.406
G1 X337.493Y52.476
G1 X337.289Y52.537
G1 X337.087Y52.569
G1 X336.882Y52.573
G1 X336.67Y52.547
G1 X336.569Y52.466
G1 X336.509Y52.407
G1 X336.467Y52.339
G1 X336.418Y52.232
G1 Y52.043
G1 X336.292
G1 X336.249Y51.878
G1 X336.228Y51.717
G1 X336.221Y51.554
G1 Y51.133
G1 X336.239Y50.891
G1 X336.292Y50.656
G1 X336.418
G1 X336.481Y50.341
G1 X336.796Y50.278
G1 Y50.152
G1 X337.174
M5
G0 X337.048Y49.459
M3
G1 X336.78Y49.49
G1 X336.517Y49.542
G1 X336.266Y49.631
G1 X336.04Y49.774
G1 Y49.9
G1 X335.788Y49.963
G1 X335.725Y50.278
G1 X335.599
G1 X335.536Y50.782
G1 X335.41
G1 X335.398Y51.318
G1 X335.393Y51.469
G1 X335.403Y51.723
G1 X335.44Y51.956
G1 X335.505Y52.183
G1 X335.599Y52.421
G1 X335.725
G1 X335.788Y52.736
G1 X335.914
G1 Y52.862
G1 X335.996Y52.961
G1 X336.077Y53.023
G1 X336.174Y53.063
G1 X336.304Y53.094
G1 X336.481Y53.114
G1 Y53.24
G1 X336.93Y53.252
G1 X337.057Y53.257
G1 X337.268Y53.249
G1 X337.435Y53.215
G1 X337.6Y53.151
G1 X337.804Y53.051
G1 Y54.5
G1 X338.56
G1 Y49.585
G1 X337.867
G1 X337.804Y49.711
G1 X337.552
G1 Y49.585
G1 X337.336Y49.557
G1 X337.212Y49.55
G1 X337.14Y49.537
G1 X337.095Y49.51
G1 X337.048Y49.459
M5
G0 X332.763Y49.585
M3
G1 Y49.711
G1 X332.448Y49.774
G1 Y49.9
G1 X332.133
G1 X332.07Y49.711
G1 X331.818
G1 Y49.585
G1 X331.187Y49.459
G1 Y49.585
G1 X330.683
G1 Y49.711
G1 X330.538Y49.719
G1 X330.438Y49.753
G1 X330.376Y49.786
G1 X330.327Y49.836
G1 X330.264Y49.924
G1 X330.199Y50.151
G1 X330.167Y50.374
G1 X330.159Y50.599
G1 X330.179Y53.114
G1 X330.872
G1 X330.935Y50.467
G1 X331.061
G1 X331.124Y50.341
G1 X331.881
G1 X331.944Y50.593
G1 X332.07
G1 X332.133Y53.114
G1 X332.952
G1 X333.015Y50.341
G1 X333.834
G1 Y50.467
G1 X334.023
G1 X334.09Y50.864
G1 X334.106Y51.268
G1 X334.149Y53.114
G1 X334.905
G1 Y49.585
G1 X334.212
G1 Y49.774
G1 X334.051Y49.687
G1 X333.718Y49.557
G1 X333.416Y49.502
G1 X333.109Y49.513
G1 X332.763Y49.585
M5
G0 X334.338Y57.273
M3
G1 X333.834
G1 Y62.125
G1 X334.527
G1 Y58.659
G1 X334.653
G1 Y58.785
G1 X334.842
G1 X334.905Y58.975
G1 X335.108Y59.072
G1 X335.299Y59.135
G1 X335.498Y59.166
G1 X335.725
G1 Y58.47
G1 X335.473Y58.407
G1 Y58.281
G1 X335.291Y58.266
G1 X335.174Y58.25
G1 X335.107Y58.228
G1 X335.065Y58.184
G1 X335.024Y58.104
G1 X334.968Y57.966
G1 X334.842Y57.828
G1 X334.716Y57.714
G1 X334.59
G1 X334.527Y57.525
G1 X334.401
G1 X334.338Y57.273
M5
G0 X332.259Y58.596
M3
G1 X331.377
G1 Y59.479
G1 X332.259
G1 Y58.596
M5
G0 X329.675Y58.281
M3
G1 Y58.533
G1 X329.801
G1 X329.856Y58.926
G1 X329.872Y59.321
G1 Y60.477
G1 X329.847Y60.767
G1 X329.801Y61.054
G1 X329.675
G1 Y61.243
G1 X329.549
G1 X329.431Y61.484
G1 X329.36Y61.558
G1 X329.152Y61.581
G1 X328.967Y61.575
G1 X328.79Y61.528
G1 X328.612Y61.424
G1 X328.453Y61.183
G1 X328.343Y60.948
G1 X328.275Y60.699
G1 X328.239Y60.415
G1 X328.219Y60.305
G1 X328.163Y60.235
G1 X328.156Y60.014
G1 Y59.55
G1 X328.147Y59.439
G1 X328.153Y59.376
G1 X328.176Y59.334
G1 X328.226Y59.29
G1 X328.239Y59.142
G1 X328.249Y58.994
G1 X328.275Y58.8
G1 X328.318Y58.624
G1 X328.384Y58.455
G1 X328.478Y58.281
G1 X328.604
G1 X328.667Y58.092
G1 X328.793
G1 Y57.966
G1 X329.067Y57.956
G1 X329.283Y57.992
G1 X329.475Y58.094
G1 X329.675Y58.281
M5
G0 X328.604Y57.273
M3
G1 Y57.399
G1 X328.289
G1 Y57.525
G1 X328.135Y57.572
G1 X328.041Y57.62
G1 X327.987Y57.658
G1 X327.955Y57.706
G1 X327.922Y57.785
G1 X327.911Y57.903
G1 X327.785
G1 X327.722Y58.281
G1 X327.595
G1 X327.461Y58.735
G1 X327.404Y59.212
G1 X327.395Y59.697
G1 X327.406Y60.172
G1 X327.41Y60.361
G1 X327.448Y60.713
G1 X327.526Y61.041
G1 X327.64Y61.36
G1 X327.785Y61.684
G1 X327.911
G1 X327.922Y61.798
G1 X327.984Y61.92
G1 X328.064Y62.002
G1 X328.164Y62.065
G1 X328.289Y62.125
G1 X328.478
G1 Y62.251
G1 X329.549
G1 Y62.125
G1 X329.746Y62.121
G1 X329.955Y62.048
G1 X330.112Y61.944
G1 X330.241Y61.804
G1 X330.368Y61.621
G1 X330.47Y61.403
G1 X330.533Y61.195
G1 X330.56Y60.98
G1 X330.557Y60.739
G1 X330.683
G1 X330.691Y60.371
G1 X330.697Y60.003
G1 X330.706Y59.633
G1 X330.69Y59.124
G1 X330.615Y58.62
G1 X330.547Y58.377
G1 X330.454Y58.143
G1 X330.332Y57.921
G1 X330.179Y57.714
G1 X330.053
G1 X329.99Y57.525
G1 X329.66Y57.353
G1 X329.327Y57.275
G1 X328.98Y57.258
G1 X328.604Y57.273
M5
G0 X325.705Y57.966
M3
G1 Y58.092
G1 X325.831
G1 X326.004Y58.281
G1 X326.119Y58.496
G1 X326.191Y58.732
G1 X326.233Y58.984
G1 X326.247Y59.186
G1 X326.259Y59.388
G1 X326.278Y59.53
G1 X326.335Y59.605
G1 Y59.794
G1 Y59.983
G1 X326.209
G1 X326.218Y60.144
G1 X326.221Y60.464
G1 X326.192Y60.754
G1 X326.112Y61.03
G1 X325.957Y61.306
G1 X325.851Y61.464
G1 X325.68Y61.549
G1 X325.507Y61.587
G1 X325.328
G1 X325.138Y61.558
G1 X324.951Y61.418
G1 X324.823Y61.243
G1 Y61.054
G1 X324.697
G1 X324.638Y60.676
G1 X324.625Y60.292
G1 Y58.996
G1 X324.648Y58.731
G1 X324.697Y58.47
G1 X324.823
G1 Y58.281
G1 X324.908Y58.176
G1 X325.012Y58.092
G1 X325.138
G1 Y57.966
G1 X325.705
M5
G0 X325.894Y57.273
M3
G1 X325.242Y57.261
G1 X324.932Y57.304
G1 X324.634Y57.399
G1 Y57.525
G1 X324.445Y57.588
G1 Y57.714
G1 X324.256Y57.777
G1 Y57.903
G1 X324.13
G1 X324.004Y58.234
G1 X323.941Y58.407
G1 X323.875Y58.577
G1 X323.811Y58.909
G1 X323.798Y59.248
G1 Y60.573
G1 X323.873Y61.009
G1 X324.004Y61.432
G1 X324.13
G1 X324.149Y61.542
G1 X324.242Y61.753
G1 X324.382Y61.936
G1 X324.508
G1 Y62.062
G1 X324.741Y62.164
G1 X324.967Y62.231
G1 X325.201Y62.267
G1 X325.457Y62.275
G1 X325.587
G1 X325.793Y62.264
G1 X325.977Y62.225
G1 X326.153Y62.159
G1 X326.335Y62.062
G1 Y61.936
G1 X326.524
G1 X326.721Y61.561
G1 X326.769Y61.425
G1 X326.776Y61.243
G1 X326.902
G1 X326.967Y61.016
G1 X327.011Y60.797
G1 X327.037Y60.573
G1 X327.045Y60.336
G1 Y59.525
G1 X327.042Y59.207
G1 X327.025Y58.896
G1 X326.982Y58.589
G1 X326.902Y58.281
G1 X326.776
G1 X326.713Y57.903
G1 X326.587
G1 X326.54Y57.785
G1 X326.473Y57.688
G1 X326.402Y57.621
G1 X326.318Y57.572
G1 X326.209Y57.525
G1 Y57.399
G1 X325.894
G1 Y57.273
M5
G0 X320.096Y59.164
M3
G1 Y59.29
G1 X320.349Y59.353
G1 Y59.479
G1 X320.475
G1 X320.594Y59.717
G1 X320.656Y59.946
G1 X320.678Y60.184
G1 X320.675Y60.448
G1 X320.664Y60.991
G1 X320.538
G1 X320.526Y61.168
G1 X320.504Y61.289
G1 X320.479Y61.362
G1 X320.432Y61.418
G1 X320.349Y61.487
G1 X320.16Y61.541
G1 X319.976Y61.565
G1 X319.788
G1 X319.592Y61.558
G1 Y61.432
G1 X319.47Y61.385
G1 X319.388Y61.344
G1 X319.342Y61.308
G1 X319.316Y61.257
G1 X319.293Y61.172
G1 X319.277Y61.054
G1 X319.151
G1 X319.109Y60.89
G1 X319.087Y60.729
G1 X319.08Y60.566
G1 Y60.145
G1 X319.098Y59.902
G1 X319.151Y59.668
G1 X319.277
G1 Y59.479
G1 X319.403
G1 X319.466Y59.29
G1 X319.655
G1 Y59.164
G1 X320.096
M5
G0 X319.907Y58.47
M3
G1 X319.64Y58.502
G1 X319.376Y58.554
G1 X319.126Y58.643
G1 X318.899Y58.785
G1 Y58.912
G1 X318.71Y58.975
G1 Y59.101
G1 X318.584
G1 Y59.29
G1 X318.458
G1 X318.395Y59.794
G1 X318.269
G1 Y60.928
G1 X318.395
G1 X318.458Y61.432
G1 X318.584
G1 X318.596Y61.535
G1 X318.66Y61.688
G1 X318.741Y61.826
G1 X318.841Y61.95
G1 X318.962Y62.062
G1 X319.197Y62.112
G1 X319.403Y62.125
G1 Y62.251
G1 X320.056Y62.27
G1 X320.194Y62.256
G1 X320.304Y62.23
G1 X320.441Y62.172
G1 X320.664Y62.062
G1 Y63.512
G1 X321.115Y63.516
G1 X321.312
G1 X321.42Y63.512
G1 X321.475Y63.429
G1 X321.495Y63.338
G1 Y63.241
G1 X321.491Y63.138
G1 Y59.328
G1 Y58.794
G1 X321.481Y58.696
G1 X321.46Y58.642
G1 X321.42Y58.596
G1 X321.245Y58.592
G1 X321.069
G1 X320.727Y58.596
G1 X320.664Y58.785
G1 X320.538
G1 Y58.659
G1 X320.101Y58.567
G1 X319.98Y58.539
G1 X319.907Y58.47
M5
G0 X316.252Y58.47
M3
G1 X316.098Y58.495
G1 X315.776Y58.56
G1 X315.618Y58.6
G1 X315.433Y58.659
G1 Y58.785
G1 X315.307
G1 X315.244Y58.912
G1 X314.992
G1 X314.946Y58.79
G1 X314.86Y58.67
G1 X314.739Y58.609
G1 X314.299Y58.533
G1 X314.047Y58.47
G1 Y58.596
G1 X313.814Y58.585
G1 X313.645Y58.592
G1 X313.499Y58.621
G1 X313.364Y58.682
G1 X313.228Y58.785
G1 X313.181Y58.983
G1 X313.165Y59.164
G1 X313.039
G1 Y62.125
G1 X313.732
G1 X313.771Y60.245
G1 X313.812Y59.855
G1 X313.921Y59.479
G1 Y59.353
G1 X314.74
G1 X314.843Y59.595
G1 X314.905Y59.825
G1 X314.937Y60.062
G1 X314.949Y60.322
G1 X314.992Y62.125
G1 X315.811
G1 X315.857Y59.662
G1 X315.884Y59.518
G1 X316Y59.353
G1 X316.147Y59.329
G1 X316.308Y59.333
G1 X316.473
G1 X316.689Y59.377
G1 X316.883Y59.479
G1 X316.931Y59.676
G1 X316.954Y59.875
G1 X316.962Y60.076
G1 X316.966Y60.279
G1 X317.009Y62.125
G1 X317.765
G1 Y58.596
G1 X317.072
G1 Y58.785
G1 X316.883
G1 Y58.659
G1 X316.446Y58.567
G1 X316.325Y58.539
G1 X316.252Y58.47
M5
G0 X332.259Y61.369
M3
G1 X331.377
G1 Y62.125
G1 X332.259
G1 Y61.369
M5
G0 X340.262Y59.983
M3
G1 X338.308
G1 Y60.739
G1 X340.262
G1 Y59.983
M5
G0 X344.295Y57.966
M3
G1 Y58.092
G1 X344.421
G1 Y58.218
G1 X344.61Y58.281
G1 X344.756Y58.631
G1 X344.816Y59.008
G1 X344.824Y59.395
G1 X344.815Y59.774
G1 Y60.021
G1 X344.798Y60.539
G1 X344.736Y61.054
G1 X344.61
G1 X344.594Y61.2
G1 X344.55Y61.363
G1 X344.453Y61.483
G1 X344.275Y61.55
G1 X344.098Y61.583
G1 X343.917
G1 X343.728Y61.558
G1 X343.546Y61.411
G1 X343.413Y61.243
G1 X343.35Y61.18
G1 Y61.023
G1 Y60.865
G1 X343.224
G1 X343.168Y60.314
G1 X343.153Y59.763
G1 X343.173Y59.211
G1 X343.224Y58.659
G1 X343.35
G1 X343.413Y58.281
G1 X343.539
G1 X343.602Y58.092
G1 X343.728
G1 Y57.966
G1 X344.295
M5
G0 X343.224Y57.399
M3
G1 X343.161Y57.525
G1 X342.972Y57.588
G1 X342.9Y57.749
G1 X342.846Y57.903
G1 X342.72
G1 X342.657Y58.281
G1 X342.531
G1 X342.474Y58.651
G1 X342.464Y59.026
G1 X342.467Y59.416
G1 X342.341
G1 Y60.172
G1 X342.467
G1 X342.459Y60.329
G1 X342.471Y60.793
G1 X342.552Y61.208
G1 X342.623Y61.403
G1 X342.718Y61.593
G1 X342.839Y61.781
G1 X342.987Y61.97
G1 X343.233Y62.136
G1 X343.48Y62.227
G1 X343.742Y62.263
G1 X344.035
G1 X344.547Y62.251
G1 Y62.125
G1 X344.724Y62.106
G1 X344.854Y62.074
G1 X344.951Y62.035
G1 X345.032Y61.973
G1 X345.114Y61.873
G1 Y61.747
G1 X345.24
G1 X345.303Y61.432
G1 X345.429
G1 X345.471Y61.26
G1 X345.49Y61.089
G1 X345.495Y60.917
G1 X345.492Y60.739
G1 X345.618
G1 X345.633Y59.072
G1 X345.602Y58.821
G1 X345.545Y58.578
G1 X345.468Y58.34
G1 X345.374Y58.104
G1 X345.316Y57.961
G1 X345.247Y57.871
G1 X345.175Y57.81
G1 X345.091Y57.763
G1 X344.988Y57.714
G1 X344.925Y57.525
G1 X344.728Y57.411
G1 X344.523Y57.327
G1 X344.312Y57.271
G1 X344.096Y57.244
G1 X343.877
G1 X343.658Y57.271
G1 X343.439Y57.323
G1 X343.224Y57.399
M5
G0 X347.887Y57.966
M3
G1 Y58.092
G1 X348.076
G1 Y58.218
G1 X348.202
G1 X348.265Y58.596
G1 X348.391
G1 X348.444Y58.967
G1 X348.462Y59.341
G1 Y59.97
G1 X348.45Y60.482
G1 X348.391Y60.991
G1 X348.265
G1 X348.245Y61.168
G1 X348.214Y61.301
G1 X348.176Y61.396
G1 X348.114Y61.474
G1 X348.013Y61.558
G1 X347.847Y61.584
G1 X347.67
G1 X347.489
G1 X347.361Y61.557
G1 X347.258Y61.517
G1 X347.165Y61.457
G1 X347.068Y61.369
G1 X347.022Y61.175
G1 X347.005Y60.991
G1 X346.879
G1 X346.82Y60.394
G1 X346.808Y59.794
G1 Y59.613
G1 X346.824Y59.103
G1 X346.879Y58.596
G1 X347.005
G1 X347.068Y58.218
G1 X347.194
G1 Y58.092
G1 X347.383
G1 Y57.966
G1 X347.887
M5
G0 X347.615Y57.265
M3
G1 X347.376Y57.269
G1 X347.194Y57.273
G1 Y57.399
G1 X346.879
G1 X346.816Y57.525
G1 X346.627Y57.588
G1 Y57.714
G1 X346.501
G1 X346.417Y57.838
G1 X346.358Y57.95
G1 X346.323Y58.07
G1 X346.312Y58.218
G1 X346.186
G1 X346.143Y58.438
G1 X346.123Y58.657
G1 X346.119Y58.877
G1 X346.122Y59.101
G1 X345.996
G1 X345.989Y60.353
G1 X346.003Y60.478
G1 X346.059Y60.55
G1 X346.095Y60.756
G1 X346.186Y61.369
G1 X346.312
G1 X346.323Y61.503
G1 X346.382Y61.668
G1 X346.461Y61.813
G1 X346.563Y61.943
G1 X346.69Y62.062
G1 X346.938Y62.173
G1 X347.176Y62.237
G1 X347.422Y62.263
G1 X347.694
G1 X348.202Y62.251
G1 Y62.125
G1 X348.58Y62.062
G1 Y61.936
G1 X348.769Y61.873
G1 Y61.747
G1 X348.895
G1 X348.958Y61.369
G1 X349.084
G1 X349.144Y60.962
G1 X349.147Y60.55
G1 X349.273
G1 Y58.975
G1 X349.147
G1 X349.151Y58.738
G1 X349.14Y58.475
G1 X349.084Y58.218
G1 X348.958
G1 X348.946Y58.049
G1 X348.891Y57.881
G1 X348.816Y57.752
G1 X348.715Y57.641
G1 X348.58Y57.525
G1 X348.391
G1 Y57.399
G1 X348.199Y57.323
G1 X348.014Y57.282
G1 X347.823Y57.266
G1 X347.615
M5
G0 X350.6Y58.59
M3
G1 X349.967Y58.596
G1 Y59.479
G1 X350.786
G1 X350.832Y59.36
G1 X350.852Y59.248
G1 X350.857Y59.131
G1 Y58.813
G1 X350.844Y58.684
G1 X350.81Y58.62
G1 X350.735Y58.597
G1 X350.6Y58.59
M5
G0 X352.668Y57.253
M3
G1 X352.526Y57.266
G1 X352.447Y57.278
G1 X352.401Y57.299
G1 X352.361Y57.336
G1 X352.355Y57.559
G1 Y57.783
G1 X352.361Y62.125
G1 X353.117
G1 Y58.659
G1 X353.243
G1 Y58.785
G1 X353.368Y58.869
G1 X353.479Y58.928
G1 X353.599Y58.963
G1 X353.748Y58.975
G1 Y59.101
G1 X354.315Y59.164
G1 Y58.47
G1 X354Y58.407
G1 Y58.281
G1 X353.748Y58.218
G1 Y58.092
G1 X353.574Y57.978
G1 X353.407Y57.851
G1 X353.267Y57.714
G1 X353.147Y57.559
G1 X353.039Y57.379
G1 X352.949Y57.305
G1 X352.872Y57.268
G1 X352.785Y57.256
G1 X352.668Y57.253
M5
G0 X356.469Y57.265
M3
G1 X356.193
G1 X356.086Y57.28
G1 X356.016Y57.336
G1 X356.01Y57.559
G1 Y57.783
G1 X356.016Y62.125
G1 X356.772
G1 Y58.659
G1 X356.898
G1 Y58.785
G1 X357.023Y58.869
G1 X357.134Y58.928
G1 X357.254Y58.963
G1 X357.403Y58.975
G1 Y59.101
G1 X357.97Y59.164
G1 X357.99Y58.817
G1 X357.97Y58.47
G1 X357.836Y58.352
G1 X357.714Y58.274
G1 X357.578Y58.231
G1 X357.403Y58.218
G1 Y58.092
G1 X357.257Y58.006
G1 X357.057Y57.849
G1 X356.898Y57.651
G1 X356.772
G1 X356.713Y57.498
G1 X356.658Y57.369
G1 X356.614Y57.302
G1 X356.559Y57.275
G1 X356.469Y57.265
M5
G0 X361.751Y61.369
M3
G1 X360.868
G1 X360.862Y61.699
G1 Y61.951
G1 Y62.143
G1 X360.87Y62.29
G1 X360.911Y62.515
G1 X360.995Y62.756
G1 X361.184Y62.819
G1 X361.239Y62.945
G1 X361.282Y63.018
G1 X361.321Y63.061
G1 X361.378Y63.089
G1 X361.475Y63.118
G1 X361.625Y63.134
G1 Y63.008
G1 X361.751
G1 X361.762Y62.805
G1 X361.757Y62.686
G1 X361.727Y62.603
G1 X361.664Y62.511
G1 X361.559Y62.449
G1 X361.436Y62.44
G1 Y62.125
G1 X361.751
G1 Y61.369
M5
G0 X364.334Y59.164
M3
G1 Y59.29
G1 X364.65Y59.353
G1 X364.713Y59.668
G1 X364.839
G1 X364.884Y59.847
G1 X364.905Y60.024
G1 X364.91Y60.204
G1 Y60.804
G1 X364.889Y60.979
G1 X364.845Y61.125
G1 X364.768Y61.256
G1 X364.65Y61.385
G1 X364.487Y61.497
G1 X364.329Y61.563
G1 X364.158Y61.59
G1 X363.961Y61.587
G1 X363.825Y61.546
G1 X363.713Y61.488
G1 X363.615Y61.409
G1 X363.515Y61.306
G1 X363.406Y61.093
G1 X363.343Y60.885
G1 X363.315Y60.67
G1 Y60.432
G1 X363.326Y59.983
G1 X363.452
G1 X363.492Y59.634
G1 X363.514Y59.544
G1 X363.559Y59.463
G1 X363.641Y59.353
G1 X363.833Y59.31
G1 X364.019Y59.29
G1 Y59.164
G1 X364.334
M5
G0 X363.326Y57.273
M3
G1 X362.633
G1 Y62.125
G1 X363.704
G1 Y62.251
G1 X364.713
G1 Y62.125
G1 X364.85Y62.114
G1 X365.004Y62.054
G1 X365.125Y61.974
G1 X365.233Y61.872
G1 X365.343Y61.747
G1 X365.406Y61.558
G1 X365.532
G1 X365.595Y61.054
G1 X365.721
G1 Y59.668
G1 X365.595
G1 X365.579Y59.455
G1 X365.532Y59.227
G1 X365.406Y59.152
G1 X365.28Y59.101
G1 X365.217Y58.912
G1 X365.091
G1 X365.047Y58.79
G1 X364.957Y58.67
G1 X364.823Y58.609
G1 X364.334Y58.533
G1 X364.206Y58.494
G1 X364.096Y58.482
G1 X363.998Y58.492
G1 X363.901Y58.516
G1 X363.649Y58.604
G1 X363.508Y58.668
G1 X363.326Y58.785
G1 Y57.273
M5
G0 X367.8Y59.164
M3
G1 Y59.29
G1 X368.178Y59.353
G1 Y59.479
G1 X368.304
G1 X368.388Y59.603
G1 X368.447Y59.714
G1 X368.482Y59.834
G1 X368.494Y59.983
G1 X366.918
G1 X366.905Y59.804
G1 X366.911Y59.694
G1 X366.946Y59.606
G1 X367.021Y59.494
G1 X367.144Y59.394
G1 X367.261Y59.335
G1 X367.389Y59.305
G1 X367.548Y59.29
G1 Y59.164
G1 X367.8
M5
G0 X367.737Y58.47
M3
G1 X367.407Y58.505
G1 X367.119Y58.576
G1 X366.856Y58.705
G1 X366.603Y58.912
G1 X366.414Y58.975
G1 Y59.164
G1 X366.288
G1 X366.225Y59.605
G1 X366.099
G1 X366.047Y60.135
G1 X366.036Y60.676
G1 X368.494
G1 Y61.054
G1 X368.367
G1 X368.304Y61.369
G1 X367.989Y61.432
G1 Y61.558
G1 X367.296
G1 Y61.432
G1 X367.143Y61.31
G1 X367.04Y61.239
G1 X366.982Y61.182
G1 X366.949Y61.109
G1 X366.918Y60.991
G1 X366.789Y60.919
G1 X366.666Y60.865
G1 X366.603Y60.928
G1 X366.475Y60.948
G1 X366.347Y60.963
G1 X366.099Y60.991
G1 Y61.369
G1 X366.225
G1 X366.288Y61.747
G1 X366.414
G1 X366.477Y61.936
G1 X366.603
G1 Y62.062
G1 X366.86Y62.173
G1 X367.106Y62.236
G1 X367.359Y62.263
G1 X367.639
G1 X368.178Y62.251
G1 Y62.125
G1 X368.411Y62.114
G1 X368.597Y62.074
G1 X368.744Y62.002
G1 X368.871Y61.895
G1 X368.998Y61.747
G1 X369.061Y61.558
G1 X369.187
G1 X369.25Y60.928
G1 X369.376
G1 Y59.983
G1 X369.25
G1 X369.245Y59.858
G1 X369.221Y59.604
G1 X369.173Y59.384
G1 X369.084Y59.18
G1 X368.935Y58.975
G1 X368.746Y58.912
G1 X368.651Y58.789
G1 X368.488Y58.683
G1 X368.322Y58.621
G1 X368.144Y58.586
G1 X367.813Y58.54
G1 X367.737Y58.47
M5
G0 X375.677Y57.273
M3
G1 X374.921
G1 Y57.588
G1 X374.795
G1 X374.732Y58.407
G1 X374.606
G1 X374.543Y59.29
G1 X374.417
G1 X374.195Y60.427
G1 X374.169Y60.542
G1 X374.102Y60.613
G1 X374.039Y60.487
G1 X373.913
G1 X373.85Y59.794
G1 X373.724
G1 Y59.416
G1 X373.598
G1 X373.561Y58.905
G1 X373.501Y58.651
G1 X373.409Y58.407
G1 X373.326Y58.058
G1 X373.251Y57.707
G1 X373.206Y57.521
G1 X373.157Y57.336
G1 X373.017Y57.285
G1 X372.877Y57.266
G1 X372.734
G1 X372.582Y57.269
G1 X372.149Y57.273
G1 X371.981Y57.841
G1 X371.733Y58.807
G1 X371.605Y59.191
G1 X371.499Y59.515
G1 X371.422Y59.847
G1 X371.376Y60.03
G1 X371.321Y60.211
G1 X371.268Y60.536
G1 Y60.865
G1 X371.14
G1 X371.131Y60.715
G1 X371.109Y60.446
G1 X371.076Y60.185
G1 X371.026Y59.927
G1 X370.951Y59.668
G1 X370.825
G1 X370.816Y59.504
G1 X370.794Y59.222
G1 X370.761Y58.949
G1 X370.711Y58.679
G1 X370.636Y58.407
G1 X370.603Y58.219
G1 X370.573Y58.029
G1 X370.447
G1 X370.455Y57.828
G1 X370.448Y57.685
G1 X370.432Y57.579
G1 X370.394Y57.459
G1 X370.321Y57.273
G1 X369.565
G1 Y57.777
G1 X369.691
G1 X369.683Y57.966
G1 X369.721Y58.348
G1 X369.809Y58.722
G1 X369.953Y59.275
G1 X370.021Y59.518
G1 X370.073Y59.672
G1 X370.136Y59.829
G1 X370.213Y60.091
G1 X370.258Y60.361
G1 X370.384
G1 X370.447Y61.054
G1 X370.573
G1 X370.61Y61.559
G1 X370.627Y61.674
G1 X370.649Y61.771
G1 X370.689Y61.904
G1 X370.762Y62.125
G1 X371.644
G1 X371.796Y61.509
G1 X371.875Y61.207
G1 X371.967Y60.908
G1 X372.022Y60.638
G1 Y60.361
G1 X372.149
G1 X372.212Y59.668
G1 X372.338
G1 X372.463Y59.243
G1 X372.5Y59.101
G1 X372.524Y58.989
G1 X372.539Y58.807
G1 X372.527Y58.596
G1 X372.716
G1 Y58.975
G1 X372.842
G1 X372.851Y59.097
G1 X372.913Y59.577
G1 X373.031Y60.046
G1 X373.157
G1 X373.22Y60.739
G1 X373.346
G1 X373.409Y61.432
G1 X373.535
G1 X373.531Y61.637
G1 X373.542Y61.875
G1 X373.598Y62.125
G1 X374.543
G1 X374.606Y61.558
G1 X374.732
G1 X374.755Y61.42
G1 X374.827Y61.036
G1 X374.929Y60.66
G1 X374.985Y60.356
G1 Y60.046
G1 X375.11
G1 Y59.668
G1 X375.236
G1 X375.259Y59.529
G1 X375.355Y59.058
G1 X375.488Y58.596
G1 X375.577Y58.265
G1 X375.641Y57.942
G1 X375.676Y57.615
G1 Y57.273
M5
G0 X379.648Y59.164
M3
G1 Y59.29
G1 X379.963Y59.353
G1 Y59.479
G1 X380.089
G1 X380.214Y59.819
G1 X380.273Y60.155
G1 X380.287Y60.5
G1 X380.278Y60.865
G1 X380.152
G1 X380.089Y61.243
G1 X379.963
G1 Y61.369
G1 X379.89Y61.458
G1 X379.821Y61.518
G1 X379.738Y61.557
G1 X379.626Y61.583
G1 X379.462
G1 X379.299
G1 X379.176Y61.556
G1 X379.076Y61.514
G1 X378.985Y61.454
G1 X378.891Y61.369
G1 Y61.18
G1 X378.765
G1 X378.708Y60.957
G1 X378.694Y60.731
G1 Y59.979
G1 X378.706Y59.838
G1 X378.765Y59.668
G1 X378.891
G1 X378.954Y59.353
G1 X379.269Y59.29
G1 Y59.164
G1 X379.648
M5
G0 X378.484Y57.265
M3
G1 X378.102
G1 X377.958Y57.28
G1 X377.883Y57.336
G1 X377.877Y57.559
G1 Y57.783
G1 X377.883Y62.125
G1 X378.067Y62.121
G1 X378.548Y62.113
G1 X378.795Y62.15
G1 X379.017Y62.251
G1 X379.262Y62.26
G1 X379.506
G1 X379.963Y62.251
G1 Y62.125
G1 X380.341Y62.062
G1 Y61.936
G1 X380.451Y61.893
G1 X380.671Y61.72
G1 X380.833Y61.505
G1 X380.949Y61.259
G1 X381.034Y60.991
G1 X381.052Y60.686
G1 X381.049Y60.222
G1 X381.032Y59.848
G1 X380.971Y59.479
G1 X380.845
G1 X380.782Y59.101
G1 X380.656
G1 Y58.975
G1 X380.428Y58.778
G1 X380.197Y58.646
G1 X379.943Y58.568
G1 X379.648Y58.533
G1 X379.521Y58.504
G1 X379.395Y58.47
G1 Y58.596
G1 X379.187Y58.589
G1 X379.049Y58.595
G1 X378.96Y58.611
G1 X378.878Y58.649
G1 X378.765Y58.722
G1 X378.715Y57.47
G1 X378.699Y57.358
G1 X378.666Y57.299
G1 X378.6Y57.274
G1 X378.484Y57.265
M5
G0 X382.924Y58.47
M3
G1 X382.672
G1 Y58.596
G1 X382.44Y58.585
G1 X382.273Y58.594
G1 X382.128Y58.626
G1 X381.992Y58.687
G1 X381.853Y58.785
G1 Y58.912
G1 X381.664Y58.975
G1 Y59.29
G1 X381.538
G1 Y62.125
G1 X382.357
G1 X382.41Y59.723
G1 X382.424Y59.585
G1 X382.483Y59.416
G1 X382.617Y59.367
G1 X382.747Y59.347
G1 X382.882
G1 X383.027
G1 X383.429Y59.353
G1 Y59.479
G1 X383.555
G1 X383.618Y59.857
G1 X383.744
G1 Y62.125
G1 X384.5
G1 Y58.596
G1 X383.807
G1 X383.744Y58.785
G1 X383.618Y58.691
G1 X383.443Y58.621
G1 X383.281Y58.592
G1 X383.115Y58.588
G1 X382.924Y58.596
G1 Y58.47
M5
G0 X386.201Y60.55
M3
G1 Y60.676
G1 X387.21Y60.739
G1 Y60.865
G1 X387.462Y60.991
G1 X387.473Y61.147
G1 X387.469Y61.25
G1 X387.441Y61.348
G1 X387.383Y61.487
G1 X387.308Y61.541
G1 X387.245Y61.566
G1 X387.16Y61.57
G1 X387.021Y61.558
G1 Y61.684
G1 X386.768
G1 Y61.558
G1 X386.627Y61.535
G1 X386.407Y61.468
G1 X386.201Y61.369
G1 Y61.243
G1 X386.075
G1 X385.949Y60.55
G1 X386.201
M5
G0 X386.705Y58.47
M3
G1 X386.548Y58.5
G1 X386.39Y58.533
G1 X385.634Y58.659
G1 Y58.785
G1 X385.512Y58.833
G1 X385.392Y58.918
G1 X385.335Y59.045
G1 X385.319Y59.164
G1 X385.193
G1 X385.13Y61.873
G1 X385.004
G1 Y62.125
G1 X385.823
G1 Y61.936
G1 X386.012
G1 Y62.062
G1 X386.516Y62.125
G1 Y62.251
G1 X387.651
G1 Y62.125
G1 X387.966Y62.062
G1 Y61.936
G1 X388.155Y61.873
G1 X388.242Y61.712
G1 X388.285Y61.558
G1 X388.3Y61.397
G1 X388.304Y60.964
G1 X388.284Y60.815
G1 X388.251Y60.698
G1 X388.191Y60.595
G1 X388.092Y60.487
G1 X387.966
G1 X387.903Y60.298
G1 X387.651
G1 Y60.172
G1 X387.303Y60.049
G1 X386.941Y59.992
G1 X386.571Y59.978
G1 X386.201Y59.983
G1 Y59.857
G1 X386.012
G1 X386.075Y59.353
G1 X386.453Y59.29
G1 Y59.164
G1 X386.878Y59.256
G1 X387.033Y59.293
G1 X387.21Y59.353
G1 X387.273Y59.479
G1 X387.399
G1 X387.462Y59.857
G1 X388.155Y59.794
G1 X388.159Y59.52
G1 Y59.428
G1 X388.154Y59.356
G1 X388.133Y59.238
G1 X388.092Y59.101
G1 X387.966
G1 X387.903Y58.912
G1 X387.777
G1 Y58.785
G1 X387.588
G1 Y58.659
G1 X386.954Y58.567
G1 X386.85Y58.558
G1 X386.789Y58.544
G1 X386.749Y58.518
G1 X386.705Y58.47
M5
G0 X381.349Y50.152
M3
G1 Y50.278
G1 X381.727Y50.341
G1 Y50.467
G1 X381.853
G1 X381.916Y50.845
G1 X382.042
G1 Y51.98
G1 X381.916
G1 X381.904Y52.086
G1 X381.841Y52.234
G1 X381.765Y52.349
G1 X381.667Y52.447
G1 X381.538Y52.547
G1 X381.309Y52.572
G1 X381.088
G1 X380.869Y52.539
G1 X380.648Y52.476
G1 X380.556Y52.363
G1 X380.504Y52.25
G1 X380.479Y52.127
G1 X380.467Y51.98
G1 X380.341
G1 X380.311Y51.677
G1 X380.293Y51.379
G1 X380.299Y51.083
G1 X380.341Y50.782
G1 X380.467
G1 X380.53Y50.467
G1 X380.656
G1 Y50.341
G1 X381.034Y50.278
G1 Y50.152
G1 X381.349
M5
G0 X381.286Y49.459
M3
G1 X381.095Y49.486
G1 X380.904Y49.518
G1 X380.53Y49.585
G1 Y49.711
G1 X380.152Y49.774
G1 Y49.9
G1 X379.963
G1 Y50.089
G1 X379.774Y50.152
G1 X379.665Y50.387
G1 X379.603Y50.608
G1 X379.58Y50.838
G1 X379.585Y51.097
G1 X379.458
G1 X379.452Y51.534
G1 X379.466Y51.656
G1 X379.522Y51.728
G1 X379.557Y51.902
G1 X379.648Y52.421
G1 X379.774
G1 X379.837Y52.736
G1 X379.963
G1 Y52.862
G1 X380.112Y53.007
G1 X380.275Y53.113
G1 X380.455Y53.188
G1 X380.656Y53.24
G1 X381.191Y53.253
G1 X381.727Y53.24
G1 Y53.114
G1 X382.168Y53.051
G1 Y52.925
G1 X382.42Y52.862
G1 Y52.736
G1 X382.546
G1 X382.723Y52.406
G1 X382.828Y52.074
G1 X382.877Y51.729
G1 X382.889Y51.357
G1 Y51.183
G1 X382.881Y50.977
G1 X382.86Y50.783
G1 X382.815Y50.595
G1 X382.735Y50.404
G1 X382.609
G1 X382.546Y50.089
G1 X382.42
G1 X382.357Y49.9
G1 X382.231
G1 Y49.774
G1 X381.853Y49.711
G1 Y49.585
G1 X381.465Y49.542
G1 X381.355Y49.525
G1 X381.286Y49.459
M5
G0 X376.686Y49.585
M3
G1 Y49.711
G1 X376.54Y49.731
G1 X376.422Y49.766
G1 X376.334Y49.808
G1 X376.259Y49.87
G1 X376.182Y49.963
G1 X376.124Y50.233
G1 X376.111Y50.51
G1 X376.119Y53.114
G1 X376.812
G1 X376.823Y52.58
G1 X376.85Y51.53
G1 X376.875Y51.133
G1 X376.922Y50.738
G1 X377.001Y50.341
G1 X378.009
G1 X378.072Y50.656
G1 X378.198
G1 X378.261Y53.114
G1 X378.954
G1 Y49.585
G1 X378.261
G1 Y49.774
G1 X378.104Y49.687
G1 X377.739Y49.55
G1 X377.406Y49.495
G1 X377.068Y49.511
G1 X376.686Y49.585
M5
G0 X375.236Y52.358
M3
G1 X374.417
G1 Y53.618
G1 X374.543
G1 X374.606Y53.933
G1 X374.732
G1 Y54.059
G1 X375.11Y54.122
G1 X375.208Y53.974
G1 X375.299Y53.807
G1 X375.236Y53.618
G1 X375.107Y53.578
G1 X374.984Y53.555
G1 X374.921Y53.114
G1 X375.236
G1 Y52.358
M5
G0 X367.741Y52.352
M3
G1 X367.107Y52.358
G1 Y53.114
G1 X367.989
G1 X367.994Y52.701
G1 Y52.52
G1 X367.989Y52.421
G1 X367.95Y52.384
G1 X367.911Y52.365
G1 X367.849Y52.356
G1 X367.741Y52.352
M5
G0 X367.863Y49.585
M3
G1 X367.107
G1 Y50.467
G1 X367.863
G1 Y50.341
G1 X367.989
G1 Y49.711
G1 X367.863
G1 Y49.585
M5
G0 X369.565Y48.388
M3
G1 Y48.514
G1 X369.423Y48.522
G1 X369.269Y48.591
G1 X369.162Y48.684
G1 X369.079Y48.804
G1 X368.998Y48.955
G1 Y49.207
G1 X368.872
G1 Y49.963
G1 X368.998
G1 X369.061Y50.341
G1 X369.187
G1 Y50.467
G1 X369.313Y50.53
G1 X369.104Y50.633
G1 X368.948Y50.73
G1 X368.837Y50.847
G1 X368.754Y50.988
G1 X368.683Y51.16
G1 X368.664Y51.434
G1 X368.668Y51.853
G1 X368.683Y52.14
G1 X368.746Y52.421
G1 X368.872
G1 Y52.673
G1 X368.957Y52.772
G1 X369.173Y52.959
G1 X369.451Y53.114
G1 X369.72Y53.207
G1 X370.001Y53.248
G1 X370.317Y53.252
G1 X370.825Y53.24
G1 Y53.114
G1 X371.266Y53.051
G1 Y52.925
G1 X371.518Y52.862
G1 Y52.736
G1 X371.644
G1 Y52.547
G1 X371.77
G1 X371.896Y51.791
G1 X371.707Y51.727
G1 X371.525Y51.685
G1 X371.34Y51.664
G1 X371.14
G1 X370.999Y52.022
G1 X370.92Y52.176
G1 X370.813Y52.308
G1 X370.636Y52.484
G1 X370.289Y52.514
G1 X369.943Y52.484
G1 X369.805Y52.373
G1 X369.705Y52.267
G1 X369.629Y52.142
G1 X369.565Y51.98
G1 X369.439
G1 X369.463Y51.736
G1 X369.51Y51.537
G1 X369.601Y51.354
G1 X369.754Y51.16
G1 Y51.034
G1 X370.762Y50.971
G1 Y50.404
G1 X370.636
G1 Y50.278
G1 X369.88Y50.089
G1 Y49.963
G1 X369.754
G1 Y49.207
G1 X369.88
G1 Y49.081
G1 X370.145Y49.038
G1 X370.325Y49.023
G1 X370.503Y49.038
G1 X370.762Y49.081
G1 X370.837Y49.191
G1 X370.888Y49.333
G1 X370.991Y49.569
G1 X371.077Y49.774
G1 X371.644
G1 Y49.648
G1 X371.833
G1 X371.8Y49.332
G1 X371.786Y49.228
G1 X371.769Y49.148
G1 X371.723Y49.025
G1 X371.644Y48.892
G1 X371.518
G1 X371.455Y48.703
G1 X371.329
G1 X371.266Y48.514
G1 X371.079Y48.416
G1 X370.875Y48.348
G1 X370.659Y48.307
G1 X370.437Y48.289
G1 X369.988Y48.311
G1 X369.565Y48.388
M5
G0 X365.217Y49.081
M3
G1 Y49.207
G1 X365.406Y49.27
G1 X365.543Y49.634
G1 X365.604Y50.017
G1 X365.617Y50.409
G1 X365.611Y50.798
G1 Y51.035
G1 X365.593Y51.541
G1 X365.532Y52.043
G1 X365.406
G1 X365.343Y52.358
G1 X365.217
G1 Y52.484
G1 X365.02Y52.548
G1 X364.811Y52.559
G1 X364.662
G1 X364.568Y52.556
G1 X364.503Y52.54
G1 X364.436Y52.499
G1 X364.334Y52.421
G1 Y52.295
G1 X364.208
G1 X364.145Y51.854
G1 X364.019
G1 Y51.286
G1 X363.893
G1 X363.889Y50.751
G1 Y50.512
G1 X363.893Y50.341
G1 X363.956Y50.278
G1 X363.976Y50.119
G1 X363.992Y49.959
G1 X364.019Y49.648
G1 X364.145
G1 X364.157Y49.475
G1 X364.18Y49.351
G1 X364.207Y49.273
G1 X364.255Y49.208
G1 X364.342Y49.124
G1 X364.561Y49.017
G1 X364.779Y48.963
G1 X364.997Y48.979
G1 X365.217Y49.081
M5
G0 X364.019Y48.388
M3
G1 X363.956Y48.514
G1 X363.767Y48.577
G1 X363.695Y48.737
G1 X363.641Y48.892
G1 X363.515
G1 X363.452Y49.27
G1 X363.326
G1 X363.269Y49.64
G1 X363.259Y50.014
G1 X363.263Y50.404
G1 X363.137
G1 Y51.16
G1 X363.263
G1 X363.254Y51.315
G1 X363.259Y51.676
G1 X363.301Y52.011
G1 X363.384Y52.337
G1 X363.515Y52.673
G1 X363.641
G1 X363.653Y52.787
G1 X363.715Y52.908
G1 X363.794Y52.991
G1 X363.894Y53.053
G1 X364.019Y53.114
G1 X364.208
G1 Y53.24
G1 X365.28
G1 Y53.114
G1 X365.484Y53.102
G1 X365.657Y53.052
G1 X365.775Y52.983
G1 X365.87Y52.882
G1 X365.973Y52.736
G1 X366.099Y52.673
G1 Y52.421
G1 X366.225
G1 X366.267Y52.249
G1 X366.286Y52.078
G1 X366.29Y51.905
G1 Y51.728
G1 X366.414
G1 X366.428Y50.061
G1 X366.395Y49.796
G1 X366.333Y49.544
G1 X366.245Y49.3
G1 X366.134Y49.057
G1 X366.056Y48.894
G1 X366.005Y48.819
G1 X365.96Y48.774
G1 X365.894Y48.741
G1 X365.784Y48.703
G1 X365.721Y48.514
G1 X365.537Y48.418
G1 X365.334Y48.349
G1 X365.116Y48.305
G1 X364.89Y48.285
G1 X364.437Y48.303
G1 X364.019Y48.388
M5
G0 X361.751Y49.27
M3
G1 X361.881Y49.64
G1 X361.943Y50.019
G1 X361.96Y50.406
G1 X361.955Y51.035
G1 X361.938Y51.541
G1 X361.877Y52.043
G1 X361.751
G1 Y52.232
G1 X361.625
G1 X361.601Y52.354
G1 X361.562Y52.484
G1 X361.395Y52.544
G1 X361.223Y52.567
G1 X361.047
G1 X360.868Y52.547
G1 X360.677Y52.415
G1 X360.541Y52.26
G1 X360.443Y52.075
G1 X360.364Y51.854
G1 X360.355Y51.57
G1 X360.364Y51.286
G1 X360.238
G1 X360.234Y50.751
G1 Y50.512
G1 X360.238Y50.341
G1 X360.301Y50.278
G1 X360.315Y50.131
G1 X360.325Y49.983
G1 X360.364Y49.722
G1 X360.437Y49.493
G1 X360.555Y49.286
G1 X360.731Y49.089
G1 X360.874Y49.008
G1 X361.013Y48.961
G1 X361.147Y48.944
G1 X361.276Y48.957
G1 X361.522Y49.064
G1 X361.751Y49.27
M5
G0 X360.364Y48.388
M3
G1 Y48.514
G1 X360.211Y48.561
G1 X360.117Y48.609
G1 X360.063Y48.647
G1 X360.03Y48.695
G1 X359.998Y48.774
G1 X359.986Y48.892
G1 X359.86
G1 X359.797Y49.27
G1 X359.671
G1 X359.537Y49.724
G1 X359.479Y50.201
G1 X359.47Y50.685
G1 X359.482Y51.16
G1 X359.485Y51.349
G1 X359.523Y51.701
G1 X359.602Y52.03
G1 X359.715Y52.349
G1 X359.86Y52.673
G1 X359.986
G1 X359.998Y52.787
G1 X360.06Y52.908
G1 X360.139Y52.991
G1 X360.239Y53.053
G1 X360.364Y53.114
G1 X360.553
G1 Y53.24
G1 X361.625
G1 Y53.114
G1 X361.822Y53.11
G1 X362.031Y53.037
G1 X362.188Y52.933
G1 X362.317Y52.792
G1 X362.444Y52.61
G1 X362.546Y52.391
G1 X362.608Y52.184
G1 X362.636Y51.969
G1 X362.633Y51.728
G1 X362.759
G1 X362.767Y51.36
G1 X362.773Y50.992
G1 X362.781Y50.622
G1 X362.766Y50.113
G1 X362.691Y49.609
G1 X362.623Y49.366
G1 X362.53Y49.132
G1 X362.408Y48.91
G1 X362.255Y48.703
G1 X362.129
G1 X362.066Y48.514
G1 X361.878Y48.416
G1 X361.674Y48.348
G1 X361.459Y48.307
G1 X361.236Y48.289
G1 X360.787Y48.311
G1 X360.364Y48.388
M5
G0 X357.159Y50.964
M3
G1 X355.449Y50.971
G1 X355.413Y51.054
G1 X355.394Y51.16
G1 X355.389Y51.245
G1 Y51.361
G1 X355.386Y51.728
G1 X357.403
G1 Y51.479
G1 X357.399Y51.292
G1 X357.39Y51.157
G1 X357.372Y51.067
G1 X357.3Y50.982
G1 X357.159Y50.964
M5
G0 X349.399Y52.358
M3
G1 X348.454
G1 Y53.114
G1 X349.399
G1 Y52.358
M5
G0 X350.6Y61.363
M3
G1 X349.967Y61.369
G1 Y62.125
G1 X350.849
G1 X350.853Y61.712
G1 Y61.532
G1 X350.849Y61.432
G1 X350.809Y61.396
G1 X350.77Y61.376
G1 X350.709Y61.368
G1 X350.6Y61.363
M5
G0 X388.092Y48.325
M3
G1 X386.895
G1 X386.772Y48.697
G1 X386.735Y48.82
G1 X386.711Y48.913
G1 X386.695Y49.056
G1 X386.705Y49.207
G1 X386.579
G1 X386.556Y49.32
G1 X386.484Y49.638
G1 X386.382Y49.947
G1 X386.328Y50.172
G1 Y50.404
G1 X386.201
G1 X386.076Y50.752
G1 X386.039Y50.868
G1 X386.015Y50.959
G1 X385.999Y51.11
G1 X386.012Y51.286
G1 X385.886
G1 X385.76Y51.854
G1 X385.612Y51.58
G1 X385.508Y51.286
G1 X385.382
G1 X385.366Y51.074
G1 X385.279Y50.696
G1 X385.138Y50.333
G1 X384.962Y49.806
G1 X384.815Y49.27
G1 X384.689
G1 X384.626Y48.703
G1 X384.5
G1 X384.504Y48.549
G1 X384.492Y48.4
G1 X384.437Y48.325
G1 X383.429
G1 Y53.114
G1 X384.248
G1 X384.311Y50.278
G1 X384.437
G1 X384.5Y50.845
G1 X384.626
G1 X384.635Y50.958
G1 X384.657Y51.16
G1 X384.689Y51.352
G1 X384.739Y51.539
G1 X384.815Y51.728
G1 X384.941
G1 X384.965Y51.96
G1 X385.025Y52.259
G1 X385.13Y52.547
G1 X385.163Y52.704
G1 X385.193Y52.862
G1 X385.319
G1 Y53.114
G1 X386.138
G1 X386.284Y52.802
G1 X386.393Y52.561
G1 X386.472Y52.374
G1 X386.524Y52.225
G1 X386.573Y51.972
G1 X386.579Y51.665
G1 X386.705
G1 X386.768Y51.034
G1 X386.895
G1 X387.02Y50.687
G1 X387.057Y50.571
G1 X387.081Y50.479
G1 X387.096Y50.329
G1 X387.084Y50.152
G1 X387.21
G1 X387.273Y53.114
G1 X388.092
G1 Y48.325
M5
G0 X386.39Y40.258
M3
G1 Y40.385
G1 X386.536Y40.396
G1 X386.643Y40.42
G1 X386.708Y40.449
G1 X386.758Y40.502
G1 X386.82Y40.597
G1 X386.87Y40.695
G1 X386.895Y40.764
G1 X386.901Y40.839
G1 X386.895Y40.952
G1 X387.021
G1 X387.067Y41.134
G1 X387.09Y41.316
G1 X387.098Y41.5
G1 Y41.688
G1 X387.103Y41.837
G1 X387.093Y42.089
G1 X387.056Y42.32
G1 X386.991Y42.545
G1 X386.895Y42.779
G1 X386.737Y42.922
G1 X386.579Y43.031
G1 X386.516Y43.157
G1 X386.241Y43.22
G1 X385.948Y43.242
G1 X385.655Y43.221
G1 X385.382Y43.157
G1 Y43.031
G1 X385.13Y42.968
G1 Y42.842
G1 X385.004
G1 X384.907Y42.655
G1 X384.844Y42.479
G1 X384.814Y42.296
G1 Y42.086
G1 X384.689
G1 Y41.456
G1 X384.815
G1 X384.803Y41.294
G1 X384.825Y41.114
G1 X384.866Y40.955
G1 X384.927Y40.802
G1 X385.004Y40.637
G1 X385.13
G1 X385.193Y40.448
G1 X385.377Y40.329
G1 X385.557Y40.268
G1 X385.749Y40.246
G1 X385.969
G1 X386.208Y40.252
G1 X386.39Y40.258
M5
G0 X385.914Y39.183
M3
G1 X385.697Y39.187
G1 Y39.313
G1 X385.229Y39.307
G1 X385.02Y39.328
G1 X384.815Y39.376
G1 Y39.502
G1 X384.673Y39.522
G1 X384.443Y39.607
G1 X384.248Y39.754
G1 Y39.88
G1 X384.122
G1 X383.936Y40.137
G1 X383.792Y40.406
G1 X383.686Y40.686
G1 X383.612Y40.975
G1 X383.549Y41.577
G1 X383.569Y42.199
G1 X383.592Y42.426
G1 X383.618Y42.653
G1 X383.744
G1 X383.807Y43.157
G1 X383.933
G1 X383.956Y43.268
G1 X384.021Y43.473
G1 X384.122Y43.661
G1 X384.285Y43.705
G1 X384.437Y43.724
G1 X384.5Y43.913
G1 X384.689
G1 Y44.039
G1 X384.992Y44.153
G1 X385.287Y44.219
G1 X385.589Y44.25
G1 X386.102Y44.26
G1 X386.402Y44.244
G1 X386.676Y44.194
G1 X386.939Y44.106
G1 X387.21Y43.976
G1 X387.462Y43.85
G1 Y43.724
G1 X387.575Y43.677
G1 X387.745Y43.551
G1 X387.881Y43.396
G1 X387.993Y43.22
G1 X388.092Y43.031
G1 X388.138Y42.75
G1 X388.155Y42.464
G1 X388.281
G1 Y41.078
G1 X388.155
G1 X388.092Y40.385
G1 X387.966
G1 X387.946Y40.239
G1 X387.911Y40.122
G1 X387.868Y40.034
G1 X387.805Y39.958
G1 X387.714Y39.88
G1 X387.588
G1 Y39.754
G1 X387.305Y39.534
G1 X386.999Y39.39
G1 X386.669Y39.306
G1 X386.314Y39.263
G1 X386.132Y39.216
G1 X385.914Y39.183
M5
G0 X366.981Y23.874
M3
G1 X365.217
G1 Y25.512
G1 X366.981
G1 Y23.874
M5
G0 X367.8Y19.589
M3
G1 Y19.715
G1 X367.485Y19.778
G1 X367.449Y19.915
G1 X367.44Y20.03
G1 X367.454Y20.145
G1 X367.485Y20.282
G1 X367.611
G1 X367.674Y20.786
G1 X367.8
G1 X367.863Y21.29
G1 X368.241
G1 Y21.164
G1 X368.407Y21.149
G1 X368.537Y21.14
G1 X368.642
G1 X368.734Y21.145
G1 X368.922Y21.191
G1 X369.191Y21.29
G1 X369.348Y21.576
G1 X369.454Y21.862
G1 X369.518Y22.161
G1 X369.552Y22.487
G1 X369.571Y22.606
G1 X369.628Y22.677
G1 X369.637Y22.81
G1 X369.641Y22.944
G1 X369.691Y25.512
G1 X371.329
G1 Y19.589
G1 X369.754
G1 X369.691Y20.03
G1 X369.565Y19.977
G1 X369.439Y19.904
G1 X369.376Y19.715
G1 X369.187
G1 Y19.589
G1 X368.836Y19.484
G1 X368.494Y19.455
G1 X368.152Y19.493
G1 X367.8Y19.589
M5
G0 X360.742Y17.383
M3
G1 X359.041
G1 X358.985Y17.454
G1 X358.97Y17.574
G1 X358.978Y20.597
G1 X356.016
G1 X356.024Y17.574
G1 X356.009Y17.454
G1 X355.953Y17.383
G1 X355.772Y17.377
G1 X355.368
G1 X354.471
G1 X354.326Y17.39
G1 X354.252Y17.446
G1 X354.246Y17.603
G1 Y17.76
G1 X354.252Y25.512
G1 X356.016
G1 Y22.047
G1 X358.978
G1 Y25.512
G1 X360.742
G1 Y17.383
M5
G0 X350.156Y22.929
M3
G1 Y23.055
G1 X350.341Y23.043
G1 X350.589Y23.059
G1 X350.835Y23.11
G1 X351.068Y23.201
G1 X351.275Y23.337
G1 X351.328Y23.392
G1 X351.353Y23.434
G1 X351.359Y23.482
G1 X351.353Y23.559
G1 X351.479
G1 Y23.937
G1 X351.353
G1 Y24.126
G1 X351.227
G1 X351.164Y24.315
G1 X350.975
G1 Y24.441
G1 X350.651
G1 X350.372Y24.376
G1 X350.111Y24.246
G1 X349.841Y24.063
G1 X349.711Y23.925
G1 X349.64Y23.786
G1 X349.607Y23.628
G1 X349.588Y23.433
G1 X349.585Y23.149
G1 X349.588Y22.866
G1 X349.873Y22.884
G1 X350.156Y22.929
M5
G0 X350.345Y19.451
M3
G1 X350.163
G1 X349.908Y19.454
G1 X349.827Y19.457
G1 X349.769Y19.463
G1 X349.7Y19.484
G1 X349.651Y19.526
G1 X349.508Y19.546
G1 X349.364Y19.561
G1 X349.084Y19.589
G1 Y19.715
G1 X348.915Y19.735
G1 X348.639Y19.819
G1 X348.391Y19.967
G1 Y20.093
G1 X348.202Y20.156
G1 Y20.282
G1 X348.076
G1 X348.017Y20.689
G1 X348.013Y21.101
G1 X347.887
G1 X347.841Y24.451
G1 X347.787Y24.733
G1 X347.698Y25.008
G1 Y25.26
G1 X347.572
G1 Y25.512
G1 X349.103Y25.527
G1 X349.203Y25.517
G1 X349.268Y25.499
G1 X349.324Y25.46
G1 X349.399Y25.386
G1 Y25.134
G1 X349.978Y25.465
G1 X350.048Y25.493
G1 X350.11Y25.507
G1 X350.197Y25.512
G1 X350.345
G1 Y25.639
G1 X350.767Y25.698
G1 X351.196Y25.718
G1 X351.624Y25.698
G1 X352.046Y25.639
G1 Y25.512
G1 X352.424Y25.449
G1 Y25.323
G1 X352.739Y25.197
G1 Y25.008
G1 X352.928Y24.945
G1 X353.049Y24.681
G1 X353.112Y24.42
G1 X353.134Y24.15
G1 Y23.773
G1 X353.128Y23.444
G1 X353.119Y23.298
G1 X353.097Y23.188
G1 X353.054Y23.055
G1 X352.928
G1 X352.913Y22.937
G1 X352.883Y22.858
G1 X352.855Y22.811
G1 X352.813Y22.777
G1 X352.739Y22.736
G1 X352.613Y22.677
G1 X352.55Y22.488
G1 X352.361
G1 Y22.362
G1 X352.05Y22.237
G1 X351.945Y22.2
G1 X351.86Y22.176
G1 X351.717Y22.16
G1 X351.542Y22.173
G1 Y22.047
G1 X351.103Y21.991
G1 X350.66Y21.984
G1 Y21.858
G1 X349.841Y21.794
G1 Y21.668
G1 X349.588
G1 X349.651Y21.164
G1 X349.777
G1 X349.841Y21.038
G1 X350.03Y20.975
G1 Y20.849
G1 X350.645Y20.886
G1 X350.774Y20.905
G1 X350.886Y20.931
G1 X350.991Y20.973
G1 X351.101Y21.038
G1 X351.176Y21.145
G1 X351.235Y21.263
G1 X351.305Y21.389
G1 X351.354Y21.46
G1 X351.404Y21.503
G1 X351.479Y21.542
G1 X351.719Y21.531
G1 X351.959Y21.515
G1 X352.424Y21.479
G1 Y21.353
G1 X352.991
G1 X353.054Y21.101
G1 X352.928
G1 X352.865Y20.597
G1 X352.739
G1 Y20.408
G1 X352.613
G1 X352.487Y20.093
G1 X352.361
G1 Y19.967
G1 X352.109Y19.904
G1 Y19.778
G1 X351.673Y19.625
G1 X351.244Y19.522
G1 X350.807Y19.465
G1 X350.345Y19.451
M5
G0 X342.341Y19.589
M3
G1 Y19.715
G1 X341.963Y19.778
G1 Y19.904
G1 X341.818Y19.92
G1 X341.655Y19.976
G1 X341.534Y20.085
G1 X341.469Y20.226
G1 X341.459Y20.408
G1 X341.333
G1 X341.289Y20.583
G1 X341.27Y20.75
G1 X341.267Y20.919
G1 X341.27Y21.101
G1 X341.144
G1 Y25.512
G1 X342.846
G1 X342.89Y22.866
G1 X342.903Y22.359
G1 X342.925Y21.958
G1 X342.966Y21.56
G1 X343.035Y21.164
G1 X343.224Y21.101
G1 Y20.975
G1 X343.413
G1 Y20.849
G1 X343.699Y20.869
G1 X343.949Y20.917
G1 X344.182Y21.009
G1 X344.421Y21.164
G1 X344.547
G1 X344.61Y21.479
G1 X344.736
G1 X344.779Y22.058
G1 X344.805Y22.229
G1 X344.862Y22.362
G1 X344.871Y22.513
G1 X344.875Y22.665
G1 X344.925Y25.512
G1 X346.627
G1 X346.634Y20.47
G1 Y19.815
G1 X346.625Y19.697
G1 X346.604Y19.635
G1 X346.564Y19.589
G1 X346.188Y19.577
G1 X345.811
G1 X345.597
G1 X345.203Y19.574
G1 X345.113Y19.584
G1 X345.054Y19.603
G1 X345Y19.642
G1 X344.925Y19.715
G1 X344.919Y19.941
G1 X344.925Y20.156
G1 X344.779Y20.03
G1 X344.679Y19.957
G1 X344.608Y19.92
G1 X344.533Y19.906
G1 X344.421
G1 Y19.778
G1 X344.043Y19.715
G1 Y19.589
G1 X343.613Y19.496
G1 X343.19Y19.455
G1 X342.768Y19.481
G1 X342.341Y19.589
M5
G0 X336.378Y19.451
M3
G1 X336.158Y19.459
G1 X335.95Y19.481
G1 X335.746Y19.523
G1 X335.536Y19.589
G1 Y19.715
G1 X335.374Y19.723
G1 X335.178Y19.79
G1 X335.01Y19.883
G1 X334.86Y20.005
G1 X334.716Y20.156
G1 X334.664Y20.331
G1 X334.653Y20.471
G1 X334.527
G1 Y20.786
G1 X334.401
G1 Y25.512
G1 X336.103
G1 X336.148Y21.86
G1 X336.202Y21.571
G1 X336.292Y21.29
G1 Y21.101
G1 X336.418
G1 Y20.975
G1 X336.607
G1 Y20.849
G1 X337.3
G1 Y20.975
G1 X337.489
G1 Y21.101
G1 X337.804Y21.353
G1 X337.914Y21.561
G1 X337.974Y21.768
G1 X337.999Y21.985
G1 X338.005Y22.222
G1 X338.047Y25.308
G1 X338.063Y25.44
G1 X338.119Y25.512
G1 X339.884
G1 Y19.715
G1 X339.758
G1 Y19.589
G1 X338.182
G1 X338.119Y20.156
G1 X337.97Y20.03
G1 X337.872Y19.957
G1 X337.809Y19.92
G1 X337.754Y19.906
G1 X337.678
G1 Y19.778
G1 X337.46Y19.685
G1 X337.249Y19.614
G1 X337.032Y19.562
G1 X336.796Y19.526
G1 X336.705Y19.467
G1 X336.602Y19.447
G1 X336.492
G1 X336.378Y19.451
M5
G0 X331.377Y23.244
M3
G1 Y23.37
G1 X331.566
G1 X331.629Y23.538
G1 X331.657Y23.709
G1 Y23.884
G1 X331.629Y24.063
G1 X331.536Y24.182
G1 X331.433Y24.281
G1 X331.319Y24.366
G1 X331.187Y24.441
G1 X330.927Y24.458
G1 X330.691Y24.413
G1 X330.467Y24.32
G1 X330.242Y24.189
G1 X330.119Y24.077
G1 X330.018Y23.962
G1 X329.934Y23.835
G1 X329.864Y23.685
G1 X329.852Y23.477
G1 X329.864Y22.866
G1 X330.249Y22.897
G1 X330.636Y22.982
G1 X331.016Y23.103
G1 X331.377Y23.244
M5
G0 X330.687Y19.451
M3
G1 X330.513
G1 X329.932Y19.484
G1 X329.36Y19.589
G1 Y19.715
G1 X328.856Y19.778
G1 Y19.904
G1 X328.604Y19.967
G1 Y20.093
G1 X328.478
G1 X328.415Y20.408
G1 X328.289
G1 X328.202Y20.718
G1 X328.159Y21.027
G1 X328.144Y21.34
G1 X328.121Y23.628
G1 Y23.855
G1 X328.111Y24.121
G1 X328.087Y24.374
G1 X328.043Y24.624
G1 X327.974Y24.882
G1 X327.911Y25.512
G1 X329.549
G1 X329.738Y25.134
G1 X329.864
G1 Y25.26
G1 X330.179Y25.323
G1 Y25.449
G1 X330.557Y25.512
G1 Y25.639
G1 X331.014Y25.693
G1 X331.475Y25.709
G1 X331.715
G1 X332.02Y25.686
G1 X332.322Y25.639
G1 Y25.512
G1 X332.456Y25.501
G1 X332.622Y25.439
G1 X332.759Y25.358
G1 X332.884Y25.257
G1 X333.015Y25.134
G1 Y25.008
G1 X333.141
G1 X333.331Y24.663
G1 X333.428Y24.316
G1 X333.46Y23.952
G1 X333.456Y23.559
G1 X333.33
G1 X333.35Y23.401
G1 X333.314Y23.197
G1 X333.246Y23.012
G1 X333.146Y22.841
G1 X333.015Y22.677
G1 X332.826
G1 X332.763Y22.488
G1 X332.528Y22.344
G1 X332.285Y22.233
G1 X332.029Y22.171
G1 X331.755
G1 Y22.047
G1 X331.315Y21.991
G1 X330.872Y21.984
G1 Y21.858
G1 X330.053Y21.794
G1 Y21.668
G1 X329.864
G1 X329.887Y21.484
G1 X329.92Y21.31
G1 X329.971Y21.142
G1 X330.053Y20.975
G1 X330.242
G1 Y20.849
G1 X331.187
G1 Y20.975
G1 X331.377
G1 X331.44Y21.164
G1 X331.566
G1 X331.629Y21.542
G1 X332.166Y21.535
G1 X332.7Y21.479
G1 X332.763Y21.416
G1 X332.983Y21.383
G1 X333.204Y21.353
G1 X333.248Y21.174
G1 X333.241Y21.006
G1 X333.199Y20.838
G1 X333.141Y20.66
G1 X333.015
G1 X332.952Y20.282
G1 X332.826
G1 X332.763Y20.093
G1 X332.637
G1 Y19.967
G1 X332.322Y19.904
G1 Y19.778
G1 X331.818Y19.715
G1 Y19.589
G1 X331.601Y19.561
G1 X331.194Y19.498
G1 X330.964Y19.465
G1 X330.823Y19.453
G1 X330.687
M5
G0 X326.618Y17.368
M3
G1 X325.441Y17.374
G1 X325.34Y17.378
G1 X325.27Y17.383
G1 X325.188Y17.405
G1 X325.138Y17.446
G1 X325.132Y17.739
G1 Y18.031
G1 X325.138Y20.093
G1 X325.012
G1 Y19.967
G1 X324.697Y19.904
G1 Y19.778
G1 X324.319Y19.715
G1 Y19.589
G1 X323.883Y19.474
G1 X323.438Y19.442
G1 X322.992Y19.483
G1 X322.554Y19.589
G1 Y19.715
G1 X322.176Y19.778
G1 Y19.904
G1 X322.066Y19.908
G1 X321.943Y19.977
G1 X321.856Y20.064
G1 X321.787Y20.17
G1 X321.718Y20.295
G1 X321.678Y20.418
G1 X321.672Y20.597
G1 X321.546
G1 X321.49Y21.014
G1 X321.476Y21.435
G1 X321.483Y25.512
G1 X323.121
G1 X323.145Y22.692
G1 Y22.319
G1 X323.158Y22.021
G1 X323.193Y21.745
G1 X323.263Y21.478
G1 X323.43Y21.099
G1 X323.436Y20.975
G1 X323.625
G1 Y20.849
G1 X324.136Y20.892
G1 X324.386Y20.927
G1 X324.634Y20.975
G1 X324.697Y21.164
G1 X324.823
G1 Y21.29
G1 X324.949
G1 X325.012Y21.858
G1 X325.138
G1 Y25.512
G1 X326.902
G1 X326.918Y17.65
G1 X326.89Y17.52
G1 X326.837Y17.437
G1 X326.75Y17.391
G1 X326.618Y17.368
M5
G0 X317.008Y17.372
M3
G1 X315.941Y17.368
G1 X315.828Y17.379
G1 X315.757Y17.397
G1 X315.698Y17.436
G1 X315.622Y17.509
G1 Y17.698
G1 X315.496
G1 X315.433Y18.013
G1 X315.307
G1 X315.244Y18.329
G1 X315.118
G1 X314.823Y18.852
G1 X314.75Y19.024
G1 X314.74Y19.211
G1 X314.614
G1 X314.551Y19.526
G1 X314.425
G1 Y19.715
G1 X314.299
G1 X314.216Y19.851
G1 X314.153Y19.956
G1 X314.108Y20.039
G1 X314.078Y20.109
G1 X314.051Y20.238
G1 X314.047Y20.408
G1 X313.921
G1 X313.818Y20.192
G1 X313.732Y19.967
G1 X313.606
G1 X313.543Y19.715
G1 X313.417
G1 X313.397Y19.546
G1 X313.312Y19.269
G1 X313.165Y19.022
G1 X313.039
G1 X313.015Y18.911
G1 X312.944Y18.71
G1 X312.85Y18.518
G1 X312.723
G1 X312.66Y18.14
G1 X312.534
G1 X312.471Y17.824
G1 X312.345
G1 Y17.635
G1 X312.219
G1 X312.156Y17.383
G1 X310.203
G1 X310.167Y17.531
G1 X310.155Y17.622
G1 X310.166Y17.691
G1 X310.199Y17.777
G1 X310.266Y17.887
G1 X310.392
G1 X310.455Y18.203
G1 X310.581
G1 X310.644Y18.518
G1 X310.77
G1 X310.833Y18.77
